;FLAVOR:Marlin
;TIME:1796
;Filament used: 1.68246m
;Layer height: 0.15
;Generated with Cura_SteamEngine 3.1.0
M190 S60
M104 S200
M109 S200
M82 ; absolute extrusion mode
G21 ;metric values
G90 ;absolute positioning
M82 ;set extruder to absolute mode
M107 ;start with the fan off
G28 X0 Y0 ;move X/Y to min endstops
G28 Z0 ;move Z to min endstops
G1 Z15.0 F9000 ;move the platform down 15mm
G92 E0 ;zero the extruded length
G1 F200 E3 ;extrude 3mm of feed stock
G92 E0 ;zero the extruded length again
G1 F9000
;Put printing message on LCD screen
M117 Printing...
;LAYER_COUNT:140
;LAYER:0
M107
G0 F3000 X97.177 Y98.12 Z0.3
;TYPE:SKIRT
G1 F1800 X98.514 Y96.823 E0.09293
G1 X98.897 Y96.496 E0.11806
G1 X100.139 Y95.563 E0.19556
G1 X100.542 Y95.296 E0.21967
G1 X101.982 Y94.465 E0.30262
G1 X102.323 Y94.29 E0.32174
G1 X103.199 Y93.891 E0.36977
G1 X103.576 Y93.742 E0.38999
G1 X105.232 Y93.182 E0.47721
G1 X105.688 Y93.057 E0.50079
G1 X107.064 Y92.767 E0.57095
G1 X107.857 Y92.681 E0.61075
G1 X111.848 Y92.649 E0.80986
G1 X112.627 Y92.719 E0.84889
G1 X113.99 Y92.978 E0.9181
G1 X114.419 Y93.085 E0.94016
G1 X115.866 Y93.53 E1.01569
G1 X116.311 Y93.696 E1.03938
G1 X117.832 Y94.37 E1.12238
G1 X118.273 Y94.599 E1.14718
G1 X119.726 Y95.473 E1.23177
G1 X120.135 Y95.755 E1.25655
G1 X121.44 Y96.78 E1.33934
G1 X121.835 Y97.135 E1.36584
G1 X123.172 Y98.508 E1.46145
G1 X123.504 Y98.897 E1.48696
G1 X124.437 Y100.139 E1.56446
G1 X124.704 Y100.542 E1.58858
G1 X125.535 Y101.982 E1.67153
G1 X125.712 Y102.328 E1.69092
G1 X126.116 Y103.218 E1.73968
G1 X126.263 Y103.59 E1.75964
G1 X126.819 Y105.235 E1.84627
G1 X126.946 Y105.702 E1.87041
G1 X127.259 Y107.208 E1.94715
G1 X127.328 Y107.681 E1.971
G1 X127.469 Y109.33 E2.05357
G1 X127.481 Y109.821 E2.07807
G1 X127.418 Y111.496 E2.1617
G1 X127.363 Y112.026 E2.18828
G1 X127.04 Y113.897 E2.28301
G1 X126.924 Y114.385 E2.30803
G1 X126.483 Y115.829 E2.38336
G1 X126.315 Y116.28 E2.40737
G1 X125.619 Y117.853 E2.49318
G1 X125.388 Y118.297 E2.51815
G1 X124.539 Y119.707 E2.60027
G1 X124.324 Y120.027 E2.6195
G1 X123.723 Y120.837 E2.66982
G1 X123.46 Y121.157 E2.69049
G1 X122.294 Y122.429 E2.77657
G1 X121.949 Y122.762 E2.8005
G1 X120.776 Y123.768 E2.87759
G1 X120.392 Y124.059 E2.90163
G1 X119 Y124.988 E2.98512
G1 X118.569 Y125.239 E3.01001
G1 X117.055 Y125.996 E3.09445
G1 X116.68 Y126.16 E3.11487
G1 X115.701 Y126.53 E3.16709
G1 X115.322 Y126.652 E3.18695
G1 X113.687 Y127.09 E3.2714
G1 X113.066 Y127.205 E3.30291
G1 X111.865 Y127.33 E3.36315
G1 X111.377 Y127.35 E3.38752
G1 X107.571 Y127.28 E3.57743
G1 X107.008 Y127.23 E3.60563
G1 X106.719 Y127.172 E3.62034
G1 X105.197 Y126.81 E3.69839
G1 X104.729 Y126.668 E3.72279
G1 X103.107 Y126.065 E3.80912
G1 X102.642 Y125.858 E3.83451
G1 X101.135 Y125.067 E3.91943
G1 X100.706 Y124.806 E3.94448
G1 X99.322 Y123.841 E4.02865
G1 X98.937 Y123.536 E4.05316
G1 X97.711 Y122.435 E4.13537
G1 X97.426 Y122.152 E4.15541
G1 X96.736 Y121.394 E4.20654
G1 X96.496 Y121.103 E4.22536
G1 X95.563 Y119.861 E4.30286
G1 X95.296 Y119.458 E4.32698
G1 X94.459 Y118.007 E4.41055
G1 X94.28 Y117.658 E4.43012
G1 X93.882 Y116.779 E4.47826
G1 X93.736 Y116.409 E4.4981
G1 X93.18 Y114.763 E4.58478
G1 X93.054 Y114.298 E4.60882
G1 X92.739 Y112.784 E4.68597
G1 X92.669 Y112.307 E4.71002
G1 X92.53 Y110.667 E4.79213
G1 X92.519 Y110.179 E4.81649
G1 X92.582 Y108.504 E4.90011
G1 X92.637 Y107.974 E4.9267
G1 X92.96 Y106.103 E5.02142
G1 X93.076 Y105.615 E5.04645
G1 X93.517 Y104.171 E5.12177
G1 X93.686 Y103.718 E5.14589
G1 X94.392 Y102.125 E5.23282
G1 X94.624 Y101.679 E5.25791
G1 X95.463 Y100.289 E5.33891
G1 X95.744 Y99.883 E5.36354
G1 X96.818 Y98.518 E5.45019
G1 X97.177 Y98.12 E5.47693
G0 F3000 X97.455 Y98.407
G1 F1800 X98.792 Y97.11 E5.56987
G1 X99.137 Y96.816 E5.59248
G1 X100.379 Y95.883 E5.66998
G1 X100.742 Y95.643 E5.69169
G1 X102.182 Y94.812 E5.77464
G1 X102.489 Y94.654 E5.79186
G1 X103.365 Y94.255 E5.83989
G1 X103.704 Y94.121 E5.85807
G1 X105.36 Y93.561 E5.94529
G1 X105.771 Y93.448 E5.96655
G1 X107.147 Y93.158 E6.03671
G1 X107.86 Y93.081 E6.07249
G1 X111.851 Y93.049 E6.2716
G1 X112.552 Y93.112 E6.30672
G1 X113.915 Y93.371 E6.37594
G1 X114.301 Y93.467 E6.39578
G1 X115.748 Y93.912 E6.47131
G1 X116.148 Y94.062 E6.49262
G1 X117.669 Y94.736 E6.57562
G1 X118.067 Y94.942 E6.59798
G1 X119.52 Y95.816 E6.68257
G1 X119.888 Y96.07 E6.70488
G1 X121.193 Y97.095 E6.78767
G1 X121.548 Y97.414 E6.81148
G1 X122.885 Y98.787 E6.90709
G1 X123.184 Y99.137 E6.93006
G1 X124.117 Y100.379 E7.00756
G1 X124.357 Y100.742 E7.02927
G1 X125.188 Y102.182 E7.11221
G1 X125.348 Y102.493 E7.12966
G1 X125.752 Y103.383 E7.17843
G1 X125.884 Y103.718 E7.19639
G1 X126.44 Y105.363 E7.28302
G1 X126.555 Y105.783 E7.30475
G1 X126.868 Y107.289 E7.38149
G1 X126.93 Y107.715 E7.40296
G1 X127.071 Y109.364 E7.48553
G1 X127.081 Y109.806 E7.50759
G1 X127.018 Y111.481 E7.59121
G1 X126.969 Y111.958 E7.61514
G1 X126.646 Y113.829 E7.70986
G1 X126.541 Y114.269 E7.73243
G1 X126.1 Y115.713 E7.80776
G1 X125.949 Y116.118 E7.82932
G1 X125.253 Y117.691 E7.91514
G1 X125.045 Y118.091 E7.93763
G1 X124.196 Y119.501 E8.01974
G1 X124.003 Y119.789 E8.03704
G1 X123.402 Y120.599 E8.08736
G1 X123.165 Y120.887 E8.10597
G1 X121.999 Y122.159 E8.19206
G1 X121.689 Y122.459 E8.21358
G1 X120.516 Y123.465 E8.29067
G1 X120.17 Y123.726 E8.3123
G1 X118.778 Y124.655 E8.39579
G1 X118.39 Y124.881 E8.41819
G1 X116.876 Y125.638 E8.50264
G1 X116.539 Y125.786 E8.521
G1 X115.56 Y126.156 E8.57322
G1 X115.219 Y126.265 E8.59108
G1 X113.584 Y126.703 E8.67552
G1 X113.025 Y126.807 E8.70389
G1 X111.824 Y126.932 E8.76413
G1 X111.385 Y126.95 E8.78605
G1 X107.579 Y126.88 E8.97597
G1 X106.812 Y126.783 E9.01454
G1 X105.29 Y126.421 E9.09259
G1 X104.869 Y126.293 E9.11454
G1 X103.247 Y125.69 E9.20088
G1 X102.828 Y125.504 E9.22375
G1 X101.321 Y124.713 E9.30866
G1 X100.935 Y124.478 E9.3312
G1 X99.551 Y123.513 E9.41538
G1 X99.205 Y123.238 E9.43743
G1 X97.979 Y122.137 E9.51964
G1 X97.722 Y121.882 E9.5377
G1 X97.032 Y121.124 E9.58884
G1 X96.816 Y120.863 E9.60574
G1 X95.883 Y119.621 E9.68324
G1 X95.643 Y119.258 E9.70495
G1 X94.806 Y117.807 E9.78852
G1 X94.645 Y117.493 E9.80613
G1 X94.247 Y116.614 E9.85427
G1 X94.115 Y116.281 E9.87214
G1 X93.559 Y114.635 E9.95882
G1 X93.445 Y114.216 E9.98048
G1 X93.13 Y112.702 E10.05763
G1 X93.068 Y112.273 E10.07926
G1 X92.929 Y110.633 E10.16137
G1 X92.919 Y110.194 E10.18328
G1 X92.982 Y108.519 E10.2669
G1 X93.031 Y108.042 E10.29083
G1 X93.354 Y106.171 E10.38555
G1 X93.459 Y105.731 E10.40812
G1 X93.9 Y104.287 E10.48345
G1 X94.052 Y103.88 E10.50512
G1 X94.758 Y102.287 E10.59205
G1 X94.967 Y101.886 E10.61461
G1 X95.806 Y100.496 E10.69561
G1 X96.059 Y100.13 E10.71781
G1 X97.133 Y98.765 E10.80446
G1 X97.455 Y98.407 E10.82848
G0 F3000 X97.734 Y98.694
G1 F1800 X99.071 Y97.397 E10.92142
G1 X99.377 Y97.135 E10.94151
G1 X100.619 Y96.202 E11.01901
G1 X100.942 Y95.989 E11.03832
G1 X102.382 Y95.158 E11.12126
G1 X102.655 Y95.018 E11.13657
G1 X103.531 Y94.619 E11.18459
G1 X103.832 Y94.5 E11.20074
G1 X105.488 Y93.94 E11.28796
G1 X105.853 Y93.84 E11.30684
G1 X107.229 Y93.55 E11.37699
G1 X107.863 Y93.481 E11.40881
G1 X111.854 Y93.449 E11.60793
G1 X112.477 Y93.505 E11.63914
G1 X113.84 Y93.764 E11.70835
G1 X114.184 Y93.849 E11.72603
G1 X115.631 Y94.294 E11.80156
G1 X115.986 Y94.427 E11.82047
G1 X117.507 Y95.101 E11.90347
G1 X117.86 Y95.285 E11.92333
G1 X119.313 Y96.159 E12.00793
G1 X119.641 Y96.384 E12.02777
G1 X120.946 Y97.409 E12.11056
G1 X121.262 Y97.694 E12.13179
G1 X122.599 Y99.067 E12.2274
G1 X122.865 Y99.377 E12.24778
G1 X123.798 Y100.619 E12.32528
G1 X124.011 Y100.942 E12.34458
G1 X124.842 Y102.382 E12.42753
G1 X124.984 Y102.658 E12.44301
G1 X125.388 Y103.548 E12.49178
G1 X125.506 Y103.846 E12.50777
G1 X126.062 Y105.491 E12.5944
G1 X126.163 Y105.865 E12.61372
G1 X126.476 Y107.371 E12.69046
G1 X126.531 Y107.749 E12.70952
G1 X126.672 Y109.398 E12.79209
G1 X126.682 Y109.791 E12.8117
G1 X126.619 Y111.466 E12.89533
G1 X126.574 Y111.89 E12.9166
G1 X126.251 Y113.761 E13.01133
G1 X126.158 Y114.152 E13.03138
G1 X125.717 Y115.596 E13.1067
G1 X125.583 Y115.956 E13.12587
G1 X124.887 Y117.529 E13.21168
G1 X124.702 Y117.885 E13.2317
G1 X123.853 Y119.295 E13.31381
G1 X123.682 Y119.551 E13.32917
G1 X123.081 Y120.361 E13.37949
G1 X122.87 Y120.616 E13.39601
G1 X121.704 Y121.888 E13.48209
G1 X121.428 Y122.155 E13.50125
G1 X120.255 Y123.161 E13.57835
G1 X119.948 Y123.394 E13.59758
G1 X118.556 Y124.323 E13.68107
G1 X118.211 Y124.523 E13.70096
G1 X116.697 Y125.28 E13.78541
G1 X116.397 Y125.411 E13.80174
G1 X115.418 Y125.781 E13.85396
G1 X115.115 Y125.879 E13.86985
G1 X113.48 Y126.317 E13.95429
G1 X112.983 Y126.409 E13.97951
G1 X111.782 Y126.534 E14.03975
G1 X111.392 Y126.55 E14.05923
G1 X107.586 Y126.48 E14.24914
G1 X106.905 Y126.394 E14.28338
G1 X105.383 Y126.032 E14.36144
G1 X105.008 Y125.918 E14.38099
G1 X103.386 Y125.315 E14.46732
G1 X103.014 Y125.149 E14.48765
G1 X101.507 Y124.358 E14.57256
G1 X101.164 Y124.15 E14.59257
G1 X99.78 Y123.185 E14.67675
G1 X99.472 Y122.941 E14.69635
G1 X98.246 Y121.84 E14.77856
G1 X98.018 Y121.613 E14.79461
G1 X97.328 Y120.855 E14.84575
G1 X97.135 Y120.623 E14.86081
G1 X96.202 Y119.381 E14.9383
G1 X95.989 Y119.058 E14.95761
G1 X95.152 Y117.607 E15.04118
G1 X95.009 Y117.328 E15.05682
G1 X94.611 Y116.449 E15.10496
G1 X94.494 Y116.153 E15.12084
G1 X93.938 Y114.507 E15.20752
G1 X93.837 Y114.135 E15.22675
G1 X93.522 Y112.621 E15.3039
G1 X93.466 Y112.239 E15.32316
G1 X93.327 Y110.599 E15.40527
G1 X93.318 Y110.209 E15.42474
G1 X93.381 Y108.534 E15.50836
G1 X93.426 Y108.11 E15.52963
G1 X93.749 Y106.239 E15.62436
G1 X93.842 Y105.848 E15.64441
G1 X94.283 Y104.404 E15.71974
G1 X94.417 Y104.042 E15.73899
G1 X95.123 Y102.449 E15.82593
G1 X95.309 Y102.092 E15.84601
G1 X96.148 Y100.702 E15.92701
G1 X96.373 Y100.377 E15.94673
G1 X97.447 Y99.012 E16.03338
G1 X97.734 Y98.694 E16.05475
G1 F1500 E9.55475
G0 F3000 X106.495 Y96.277
G0 X108.65 Y95.894
G0 X111.235 Y98.694
G0 X112.52 Y98.694
G0 X112.72 Y97.497
G0 X112.743 Y97.401
;TYPE:WALL-INNER
G1 F1500 E16.05475
G1 F1800 X113.217 Y97.508 E16.079
G1 X114.004 Y97.738 E16.1199
G1 X114.765 Y98.012 E16.16025
G1 X115.502 Y98.333 E16.20036
G1 X116.226 Y98.702 E16.2409
G1 X116.92 Y99.115 E16.28119
G1 X117.586 Y99.568 E16.32138
G1 X118.248 Y100.083 E16.36322
G1 X118.826 Y100.592 E16.40165
G1 X119.398 Y101.164 E16.442
G1 X119.944 Y101.783 E16.48318
G1 X120.437 Y102.418 E16.52329
G1 X120.891 Y103.086 E16.56358
G1 X121.314 Y103.802 E16.60507
G1 X121.664 Y104.49 E16.64359
G1 X122.001 Y105.268 E16.68588
G1 X122.263 Y105.996 E16.72449
G1 X122.497 Y106.799 E16.76621
G1 X122.668 Y107.564 E16.80532
G1 X122.8 Y108.393 E16.8472
G1 X122.863 Y109.066 E16.88092
G1 X122.864 Y109.083 E16.88177
G1 X122.873 Y109.171 E16.88619
G1 X122.9 Y109.994 E16.92727
G1 X122.891 Y110.275 E16.94129
G1 X122.879 Y110.639 E16.95946
G1 X122.873 Y110.821 E16.96855
G1 X122.863 Y110.934 E16.97421
G1 X122.833 Y111.263 E16.99069
G1 X122.8 Y111.607 E17.00793
G1 X122.669 Y112.43 E17.04951
G1 X122.5 Y113.189 E17.0883
G1 X122.265 Y113.995 E17.13019
G1 X122.001 Y114.732 E17.16925
G1 X121.669 Y115.5 E17.21099
G1 X121.308 Y116.208 E17.25064
G1 X120.891 Y116.914 E17.29154
G1 X120.437 Y117.582 E17.33184
G1 X119.944 Y118.217 E17.37195
G1 X119.398 Y118.836 E17.41313
G1 X118.836 Y119.398 E17.45278
G1 X118.222 Y119.94 E17.49364
G1 X117.582 Y120.437 E17.53407
G1 X116.914 Y120.891 E17.57436
G1 X116.213 Y121.305 E17.61498
G1 X115.501 Y121.668 E17.65485
G1 X114.752 Y121.993 E17.69558
G1 X113.98 Y122.269 E17.73649
G1 X113.2 Y122.497 E17.77703
G1 X112.743 Y122.599 E17.80039
G1 X112.5 Y122.653 E17.81281
G1 X112.5 Y122.405 E17.82035
G1 X112.5 Y122.404 E17.8204
G1 X112.5 Y97.596 E19.05808
G1 X112.5 Y97.595 E19.05813
G1 X112.5 Y97.346 E19.07055
G1 X112.743 Y97.401 E19.07813
G0 F3000 X112.72 Y97.497
G0 X121.644 Y107.461
G0 X122.249 Y108.479
G0 X122.526 Y109.088
G0 X122.62 Y110.265
G0 X122.56 Y110.91
G0 X122.515 Y111.075
G0 X121.941 Y112.687
G0 X121.907 Y112.594
G1 F1800 X122.363 Y111.484 E19.138
G1 X122.435 Y111.221 E19.1516
G1 X122.521 Y110.903 E19.16653
G1 X122.536 Y110.779 E19.17053
G1 X122.556 Y110.628 E19.1757
G1 X122.58 Y110.265 E19.19007
G1 X122.563 Y110.018 E19.19992
G1 X122.506 Y109.196 E19.23593
G1 X122.5 Y109.117 E19.23953
G1 X122.482 Y109.117 E19.24043
G1 X122.428 Y109.12 E19.24312
G1 X122.42 Y109.081 E19.24511
G1 X122.213 Y108.494 E19.27616
G1 X121.94 Y107.96 E19.30608
G1 X121.613 Y107.485 E19.33486
G1 X121.335 Y107.171 E19.35578
G1 X121.206 Y107.042 E19.36488
G1 X120.819 Y106.711 E19.39029
G1 X120.351 Y106.402 E19.41826
G1 X119.841 Y106.158 E19.44647
G1 X119.311 Y105.987 E19.47426
G1 X118.964 Y105.916 E19.49193
G1 X118.766 Y105.885 E19.50192
G1 X118.237 Y105.855 E19.52836
G1 X117.689 Y105.896 E19.55577
G1 X117.172 Y106.004 E19.58212
G1 X116.666 Y106.182 E19.60889
G1 X115.976 Y106.519 E19.6472
G1 X115.528 Y106.823 E19.67421
G1 X115.126 Y107.181 E19.70106
G1 X114.778 Y107.588 E19.72778
G1 X114.543 Y107.939 E19.74885
G1 X114.301 Y108.413 E19.7754
G1 X114.121 Y108.921 E19.80229
G1 X114.011 Y109.45 E19.82925
G1 X113.974 Y109.987 E19.8561
G1 X114.018 Y110.75 E19.89423
G1 X114.114 Y111.273 E19.92076
G1 X114.281 Y111.788 E19.94777
G1 X114.518 Y112.279 E19.97497
G1 X114.818 Y112.737 E20.00229
G1 X115.175 Y113.153 E20.02964
G1 X115.596 Y113.527 E20.05773
G1 X116.06 Y113.844 E20.08577
G1 X116.567 Y114.098 E20.11406
G1 X117.106 Y114.287 E20.14255
G1 X117.663 Y114.401 E20.17092
G1 X118.254 Y114.444 E20.20048
G1 X118.84 Y114.409 E20.22977
G1 X119.037 Y114.369 E20.2398
G1 X119.072 Y114.41 E20.24249
G1 X119.984 Y114.105 E20.29047
G1 X120.524 Y113.841 E20.32045
G1 X120.742 Y113.695 E20.33354
G1 X121.036 Y113.468 E20.35207
G1 X121.466 Y113.039 E20.38238
G1 X121.835 Y112.558 E20.41262
G1 X121.907 Y112.594 E20.41664
G0 F3000 X121.701 Y112.044
;TYPE:WALL-OUTER
G1 F1800 X121.984 Y111.355 E20.4538
G1 X122.128 Y110.825 E20.4812
G1 X122.158 Y110.59 E20.49302
G1 X122.179 Y110.266 E20.50922
G1 X122.128 Y109.532 E20.54593
G1 X122.103 Y109.533 E20.54717
G1 X122.033 Y109.187 E20.56479
G1 X121.845 Y108.652 E20.59308
G1 X121.596 Y108.166 E20.62032
G1 X121.297 Y107.732 E20.64661
G1 X121.043 Y107.445 E20.66574
G1 X120.934 Y107.335 E20.67346
G1 X120.578 Y107.031 E20.69682
G1 X120.153 Y106.751 E20.72221
G1 X119.693 Y106.53 E20.74767
G1 X119.21 Y106.375 E20.77298
G1 X118.892 Y106.31 E20.78917
G1 X118.723 Y106.283 E20.79771
G1 X118.241 Y106.256 E20.82179
G1 X117.745 Y106.293 E20.84661
G1 X117.28 Y106.39 E20.8703
G1 X116.821 Y106.552 E20.89459
G1 X116.177 Y106.866 E20.93033
G1 X115.774 Y107.139 E20.95462
G1 X115.412 Y107.462 E20.97882
G1 X115.097 Y107.83 E21.00299
G1 X114.889 Y108.142 E21.0217
G1 X114.669 Y108.572 E21.0458
G1 X114.507 Y109.029 E21.06999
G1 X114.408 Y109.505 E21.09424
G1 X114.375 Y109.989 E21.11844
G1 X114.416 Y110.702 E21.15407
G1 X114.503 Y111.175 E21.17807
G1 X114.653 Y111.639 E21.2024
G1 X114.867 Y112.082 E21.22694
G1 X115.138 Y112.496 E21.25163
G1 X115.461 Y112.872 E21.27636
G1 X115.843 Y113.211 E21.30184
G1 X116.263 Y113.498 E21.32722
G1 X116.724 Y113.729 E21.35294
G1 X117.213 Y113.901 E21.3788
G1 X117.718 Y114.004 E21.40452
G1 X118.256 Y114.043 E21.43143
G1 X118.788 Y114.011 E21.45802
G1 X119.186 Y113.931 E21.47827
G1 X119.199 Y113.946 E21.47926
G1 X119.832 Y113.734 E21.51257
G1 X120.324 Y113.494 E21.53988
G1 X120.508 Y113.37 E21.55095
G1 X120.772 Y113.167 E21.56756
G1 X121.165 Y112.775 E21.59525
G1 X121.5 Y112.337 E21.62277
G1 X121.673 Y112.03 E21.64035
G1 X121.701 Y112.044 E21.64191
G0 F3000 X121.777 Y111.859
G1 F1500 E15.14191
G0 F3000 X122.238 Y112.05
G0 X122.595 Y110.631
G0 X122.62 Y110.265
G0 X122.526 Y109.088
G0 X121.974 Y107.94
G0 X121.629 Y107.49
G0 X112.562 Y97.424
G0 X112.331 Y96.91
G1 F1500 E21.64191
G1 F1800 X112.515 Y96.94 E21.65121
G1 X113.32 Y97.121 E21.69237
G1 X114.126 Y97.357 E21.73427
G1 X114.914 Y97.641 E21.77606
G1 X115.671 Y97.97 E21.81724
G1 X116.421 Y98.353 E21.85926
G1 X117.139 Y98.78 E21.90093
G1 X117.825 Y99.246 E21.94231
G1 X118.494 Y99.767 E21.98461
G1 X119.109 Y100.309 E22.02551
G1 X119.691 Y100.891 E22.06657
G1 X120.244 Y101.518 E22.10828
G1 X120.764 Y102.188 E22.15059
G1 X121.226 Y102.868 E22.19161
