;FLAVOR:Marlin
;TIME:3958
;Filament used: 2.90598m
;Layer height: 0.15
;Generated with Cura_SteamEngine 3.1.0
M190 S60
M104 S200
M109 S200
M82 ; absolute extrusion mode
G21 ;metric values
G90 ;absolute positioning
M82 ;set extruder to absolute mode
M107 ;start with the fan off
G28 X0 Y0 ;move X/Y to min endstops
G28 Z0 ;move Z to min endstops
G1 Z15.0 F9000 ;move the platform down 15mm
G92 E0 ;zero the extruded length
G1 F200 E3 ;extrude 3mm of feed stock
G92 E0 ;zero the extruded length again
G1 F9000
;Put printing message on LCD screen
M117 Printing...
;LAYER_COUNT:140
;LAYER:0
M107
G0 F3000 X97.132 Y98.17 Z0.3
;TYPE:SKIRT
G1 F1800 X98.533 Y96.808 E0.09748
G1 X98.916 Y96.48 E0.12264
G1 X100.096 Y95.592 E0.19632
G1 X100.454 Y95.351 E0.21785
G1 X101.574 Y94.684 E0.28288
G1 X102.079 Y94.43 E0.31109
G1 X102.38 Y94.318 E0.32711
G1 X106.923 Y92.835 E0.56553
G1 X107.471 Y92.698 E0.59371
G1 X107.861 Y92.649 E0.61332
G1 X109.509 Y92.524 E0.69578
G1 X110.008 Y92.518 E0.72067
G1 X111.696 Y92.601 E0.80499
G1 X112.189 Y92.656 E0.82974
G1 X113.818 Y92.941 E0.91224
G1 X114.287 Y93.052 E0.93629
G1 X115.848 Y93.524 E1.01765
G1 X116.311 Y93.696 E1.04229
G1 X117.832 Y94.37 E1.12529
G1 X118.273 Y94.599 E1.15008
G1 X119.726 Y95.473 E1.23468
G1 X120.135 Y95.755 E1.25946
G1 X121.44 Y96.78 E1.34225
G1 X121.835 Y97.135 E1.36875
G1 X123.172 Y98.508 E1.46436
G1 X123.504 Y98.897 E1.48987
G1 X124.433 Y100.134 E1.56705
G1 X124.698 Y100.535 E1.59103
G1 X125.533 Y101.98 E1.67429
G1 X125.712 Y102.328 E1.69382
G1 X126.116 Y103.218 E1.74258
G1 X126.263 Y103.59 E1.76254
G1 X126.819 Y105.235 E1.84917
G1 X126.946 Y105.702 E1.87331
G1 X127.259 Y107.208 E1.95005
G1 X127.328 Y107.681 E1.9739
G1 X127.469 Y109.33 E2.05647
G1 X127.481 Y109.821 E2.08097
G1 X127.418 Y111.496 E2.1646
G1 X127.363 Y112.026 E2.19118
G1 X127.04 Y113.897 E2.28591
G1 X126.924 Y114.385 E2.31093
G1 X126.483 Y115.829 E2.38626
G1 X126.315 Y116.28 E2.41027
G1 X125.619 Y117.853 E2.49608
G1 X125.388 Y118.297 E2.52105
G1 X124.539 Y119.707 E2.60317
G1 X124.324 Y120.027 E2.6224
G1 X123.723 Y120.837 E2.67272
G1 X123.46 Y121.157 E2.69339
G1 X122.294 Y122.429 E2.77947
G1 X121.949 Y122.762 E2.8034
G1 X120.776 Y123.768 E2.88049
G1 X120.392 Y124.059 E2.90453
G1 X119 Y124.988 E2.98802
G1 X118.569 Y125.239 E3.0129
G1 X117.055 Y125.996 E3.09735
G1 X116.68 Y126.16 E3.11777
G1 X115.701 Y126.53 E3.16999
G1 X115.318 Y126.653 E3.19006
G1 X113.657 Y127.096 E3.27582
G1 X113.172 Y127.194 E3.30051
G1 X111.649 Y127.404 E3.37721
G1 X111.191 Y127.44 E3.40013
G1 X109.55 Y127.476 E3.48202
G1 X109.077 Y127.458 E3.50563
G1 X107.608 Y127.316 E3.57926
G1 X107.051 Y127.222 E3.60745
G1 X106.691 Y127.117 E3.62615
G1 X102.042 Y125.517 E3.87145
G1 X101.522 Y125.296 E3.89963
G1 X101.189 Y125.105 E3.91879
G1 X100.06 Y124.383 E3.98565
G1 X99.703 Y124.126 E4.00759
G1 X98.355 Y123.038 E4.09402
G1 X97.979 Y122.693 E4.11947
G1 X96.806 Y121.469 E4.20405
G1 X96.496 Y121.103 E4.22798
G1 X95.563 Y119.861 E4.30548
G1 X95.296 Y119.458 E4.3296
G1 X94.459 Y118.007 E4.41317
G1 X94.28 Y117.658 E4.43274
G1 X93.882 Y116.779 E4.48088
G1 X93.736 Y116.409 E4.50073
G1 X93.18 Y114.763 E4.5874
G1 X93.054 Y114.298 E4.61144
G1 X92.739 Y112.784 E4.68859
G1 X92.669 Y112.307 E4.71264
G1 X92.53 Y110.667 E4.79476
G1 X92.519 Y110.179 E4.81911
G1 X92.582 Y108.498 E4.90303
G1 X92.636 Y107.974 E4.92931
G1 X92.947 Y106.155 E5.02138
G1 X93.062 Y105.668 E5.04635
G1 X93.512 Y104.185 E5.12366
G1 X93.679 Y103.734 E5.14766
G1 X94.357 Y102.194 E5.2316
G1 X94.587 Y101.749 E5.2566
G1 X95.454 Y100.303 E5.34071
G1 X95.735 Y99.894 E5.36547
G1 X96.77 Y98.572 E5.44923
G1 X97.132 Y98.17 E5.47622
G0 F3000 X97.411 Y98.457
G1 F1800 X98.812 Y97.095 E5.5737
G1 X99.156 Y96.8 E5.59631
G1 X100.336 Y95.912 E5.66999
G1 X100.659 Y95.695 E5.6894
G1 X101.779 Y95.028 E5.75444
G1 X102.504 Y94.699 E5.79416
G1 X107.047 Y93.216 E6.03258
G1 X107.568 Y93.088 E6.05935
G1 X107.892 Y93.048 E6.07563
G1 X109.54 Y92.923 E6.15809
G1 X109.989 Y92.917 E6.18049
G1 X111.677 Y93 E6.26481
G1 X112.12 Y93.05 E6.28705
G1 X113.749 Y93.335 E6.36955
G1 X114.171 Y93.435 E6.39119
G1 X115.732 Y93.907 E6.47255
G1 X116.148 Y94.062 E6.4947
G1 X117.669 Y94.736 E6.5777
G1 X118.067 Y94.942 E6.60006
G1 X119.52 Y95.816 E6.68465
G1 X119.888 Y96.07 E6.70696
G1 X121.193 Y97.095 E6.78975
G1 X121.548 Y97.414 E6.81356
G1 X122.885 Y98.787 E6.90917
G1 X123.185 Y99.137 E6.93217
G1 X124.114 Y100.374 E7.00935
G1 X124.352 Y100.735 E7.03092
G1 X125.187 Y102.18 E7.11418
G1 X125.348 Y102.493 E7.13174
G1 X125.752 Y103.383 E7.18051
G1 X125.884 Y103.718 E7.19847
G1 X126.44 Y105.363 E7.2851
G1 X126.555 Y105.783 E7.30683
G1 X126.868 Y107.289 E7.38357
G1 X126.93 Y107.715 E7.40504
G1 X127.071 Y109.364 E7.48761
G1 X127.081 Y109.806 E7.50967
G1 X127.018 Y111.481 E7.5933
G1 X126.969 Y111.958 E7.61722
G1 X126.646 Y113.829 E7.71194
G1 X126.541 Y114.269 E7.73451
G1 X126.1 Y115.713 E7.80984
G1 X125.949 Y116.118 E7.8314
G1 X125.253 Y117.691 E7.91722
G1 X125.045 Y118.091 E7.93971
G1 X124.196 Y119.501 E8.02182
G1 X124.003 Y119.789 E8.03912
G1 X123.402 Y120.599 E8.08944
G1 X123.165 Y120.887 E8.10805
G1 X121.999 Y122.159 E8.19414
G1 X121.689 Y122.459 E8.21566
G1 X120.516 Y123.465 E8.29275
G1 X120.17 Y123.726 E8.31438
G1 X118.778 Y124.655 E8.39787
G1 X118.39 Y124.881 E8.42027
G1 X116.876 Y125.638 E8.50472
G1 X116.539 Y125.786 E8.52308
G1 X115.56 Y126.156 E8.5753
G1 X115.215 Y126.266 E8.59336
G1 X113.554 Y126.709 E8.67913
G1 X113.118 Y126.797 E8.70132
G1 X111.595 Y127.007 E8.77802
G1 X111.182 Y127.04 E8.79869
G1 X109.541 Y127.076 E8.88058
G1 X109.116 Y127.06 E8.9018
G1 X107.647 Y126.918 E8.97543
G1 X107.118 Y126.827 E9.00221
G1 X106.821 Y126.739 E9.01766
G1 X102.172 Y125.139 E9.26295
G1 X101.68 Y124.927 E9.28968
G1 X101.404 Y124.768 E9.30557
G1 X100.275 Y124.046 E9.37243
G1 X99.954 Y123.814 E9.39219
G1 X98.606 Y122.726 E9.47862
G1 X98.268 Y122.416 E9.5015
G1 X97.095 Y121.192 E9.58608
G1 X96.816 Y120.863 E9.6076
G1 X95.883 Y119.621 E9.6851
G1 X95.643 Y119.258 E9.70681
G1 X94.806 Y117.807 E9.79038
G1 X94.645 Y117.493 E9.80798
G1 X94.247 Y116.614 E9.85612
G1 X94.115 Y116.281 E9.87399
G1 X93.559 Y114.635 E9.96067
G1 X93.445 Y114.216 E9.98234
G1 X93.13 Y112.702 E10.05949
G1 X93.068 Y112.273 E10.08111
G1 X92.929 Y110.633 E10.16323
G1 X92.919 Y110.194 E10.18513
G1 X92.982 Y108.513 E10.26906
G1 X93.03 Y108.041 E10.29273
G1 X93.341 Y106.222 E10.38479
G1 X93.445 Y105.784 E10.40725
G1 X93.895 Y104.301 E10.48457
G1 X94.045 Y103.895 E10.50617
G1 X94.723 Y102.355 E10.59011
G1 X94.93 Y101.955 E10.61258
G1 X95.797 Y100.509 E10.6967
G1 X96.05 Y100.141 E10.71898
G1 X97.085 Y98.819 E10.80274
G1 X97.411 Y98.457 E10.82705
G0 F3000 X97.689 Y98.744
G1 F1800 X99.09 Y97.382 E10.92453
G1 X99.397 Y97.119 E10.9447
G1 X100.577 Y96.231 E11.01837
G1 X100.864 Y96.039 E11.0356
G1 X101.984 Y95.372 E11.10064
G1 X102.628 Y95.079 E11.13594
G1 X107.171 Y93.596 E11.37436
G1 X107.662 Y93.478 E11.39955
G1 X107.922 Y93.447 E11.41261
G1 X109.57 Y93.322 E11.49507
G1 X109.969 Y93.317 E11.51498
G1 X111.657 Y93.4 E11.59929
G1 X112.051 Y93.444 E11.61907
G1 X113.68 Y93.729 E11.70158
G1 X114.055 Y93.818 E11.72081
G1 X115.616 Y94.29 E11.80217
G1 X115.986 Y94.427 E11.82185
G1 X117.507 Y95.101 E11.90485
G1 X117.86 Y95.285 E11.92471
G1 X119.313 Y96.159 E12.00931
G1 X119.641 Y96.384 E12.02915
G1 X120.946 Y97.409 E12.11194
G1 X121.262 Y97.694 E12.13317
G1 X122.599 Y99.067 E12.22878
G1 X122.865 Y99.377 E12.24916
G1 X123.794 Y100.614 E12.32634
G1 X124.006 Y100.935 E12.34553
G1 X124.841 Y102.38 E12.42879
G1 X124.984 Y102.658 E12.44439
G1 X125.388 Y103.548 E12.49315
G1 X125.506 Y103.846 E12.50914
G1 X126.062 Y105.491 E12.59577
G1 X126.163 Y105.865 E12.6151
G1 X126.476 Y107.371 E12.69184
G1 X126.531 Y107.749 E12.7109
G1 X126.672 Y109.398 E12.79347
G1 X126.682 Y109.791 E12.81308
G1 X126.619 Y111.466 E12.8967
G1 X126.574 Y111.89 E12.91798
G1 X126.251 Y113.761 E13.0127
G1 X126.158 Y114.152 E13.03275
G1 X125.717 Y115.596 E13.10808
G1 X125.583 Y115.956 E13.12724
G1 X124.887 Y117.529 E13.21306
G1 X124.702 Y117.885 E13.23308
G1 X123.853 Y119.295 E13.31519
G1 X123.682 Y119.551 E13.33055
G1 X123.081 Y120.361 E13.38087
G1 X122.87 Y120.616 E13.39738
G1 X121.704 Y121.888 E13.48347
G1 X121.428 Y122.155 E13.50263
G1 X120.255 Y123.161 E13.57972
G1 X119.948 Y123.394 E13.59895
G1 X118.556 Y124.323 E13.68244
G1 X118.211 Y124.523 E13.70234
G1 X116.697 Y125.28 E13.78679
G1 X116.397 Y125.411 E13.80312
G1 X115.418 Y125.781 E13.85533
G1 X115.112 Y125.88 E13.87138
G1 X113.451 Y126.323 E13.95714
G1 X113.063 Y126.401 E13.97689
G1 X111.54 Y126.611 E14.05359
G1 X111.173 Y126.64 E14.07196
G1 X109.532 Y126.676 E14.15385
G1 X109.154 Y126.662 E14.17272
G1 X107.685 Y126.52 E14.24635
G1 X106.952 Y126.361 E14.28377
G1 X102.303 Y124.761 E14.52906
G1 X101.839 Y124.559 E14.55431
G1 X101.62 Y124.431 E14.56696
G1 X100.491 Y123.709 E14.63382
G1 X100.205 Y123.503 E14.65141
G1 X98.857 Y122.415 E14.73783
G1 X98.557 Y122.139 E14.75817
G1 X97.384 Y120.915 E14.84275
G1 X97.135 Y120.623 E14.86189
G1 X96.202 Y119.381 E14.93939
G1 X95.989 Y119.058 E14.9587
G1 X95.152 Y117.607 E15.04227
G1 X95.009 Y117.328 E15.05791
G1 X94.611 Y116.449 E15.10605
G1 X94.494 Y116.153 E15.12193
G1 X93.938 Y114.507 E15.20861
G1 X93.837 Y114.135 E15.22784
G1 X93.522 Y112.621 E15.30499
G1 X93.466 Y112.239 E15.32425
G1 X93.327 Y110.599 E15.40636
G1 X93.318 Y110.209 E15.42582
G1 X93.381 Y108.528 E15.50975
G1 X93.425 Y108.109 E15.53077
G1 X93.736 Y106.29 E15.62284
G1 X93.828 Y105.9 E15.64283
G1 X94.278 Y104.417 E15.72014
G1 X94.411 Y104.057 E15.73929
G1 X95.089 Y102.517 E15.82324
G1 X95.274 Y102.16 E15.8433
G1 X96.141 Y100.714 E15.92741
G1 X96.365 Y100.387 E15.94719
G1 X97.4 Y99.065 E16.03095
G1 X97.689 Y98.744 E16.0525
G1 F1500 E9.5525
G0 F3000 X100.957 Y99.1
G0 X101.804 Y100.064
G0 X102.9 Y99.545
G0 X103 Y99.545
;TYPE:WALL-INNER
G1 F1500 E16.0525
G1 F1800 X103.001 Y120.453 E17.09561
G1 X103.001 Y120.454 E17.09566
G1 X103.001 Y120.831 E17.11446
G1 X102.689 Y120.619 E17.12497
G1 X102.412 Y120.43 E17.1417
G1 X101.752 Y119.917 E17.18341
G1 X101.172 Y119.406 E17.22197
G1 X100.602 Y118.836 E17.26219
G1 X100.056 Y118.217 E17.30337
G1 X99.563 Y117.582 E17.34347
G1 X99.109 Y116.914 E17.38377
G1 X98.692 Y116.208 E17.42468
G1 X98.331 Y115.5 E17.46433
G1 X97.999 Y114.732 E17.50607
G1 X97.735 Y113.995 E17.54513
G1 X97.5 Y113.189 E17.58701
G1 X97.331 Y112.43 E17.62581
G1 X97.2 Y111.607 E17.66738
G1 X97.127 Y110.821 E17.70676
G1 X97.1 Y110.005 E17.7475
G1 X97.126 Y109.186 E17.78838
G1 X97.199 Y108.408 E17.82736
G1 X97.328 Y107.589 E17.86873
G1 X97.499 Y106.817 E17.90818
G1 X97.725 Y106.035 E17.94879
G1 X98.003 Y105.26 E17.98986
G1 X98.319 Y104.528 E18.02964
G1 X98.691 Y103.794 E18.07069
G1 X99.095 Y103.11 E18.11033
G1 X99.556 Y102.428 E18.1514
G1 X100.048 Y101.793 E18.19147
G1 X100.58 Y101.187 E18.2317
G1 X101.186 Y100.581 E18.27446
G1 X101.792 Y100.049 E18.31469
G1 X102.43 Y99.555 E18.35495
G1 X102.688 Y99.38 E18.3705
G1 X103 Y99.168 E18.38932
G1 X103 Y99.545 E18.39982
G1 F1500 E11.89982
G0 F3000 X102.9 Y99.545
G0 X102.954 Y99.256
G0 X103.4 Y98.809
;TYPE:WALL-OUTER
G1 F1500 E18.39982
G1 F1800 X103.401 Y121.19 E19.51641
G1 X103.401 Y121.191 E19.51646
G1 X103.401 Y121.541 E19.53393
G1 X103.1 Y121.362 E19.54381
G1 X102.861 Y121.22 E19.55768
G1 X102.173 Y120.752 E19.59919
G1 X101.506 Y120.233 E19.64136
G1 X100.891 Y119.691 E19.68225
G1 X100.309 Y119.109 E19.72332
G1 X99.756 Y118.482 E19.76503
G1 X99.236 Y117.812 E19.80734
G1 X98.774 Y117.132 E19.84835
G1 X98.342 Y116.402 E19.89067
G1 X97.968 Y115.668 E19.93177
G1 X97.632 Y114.891 E19.97401
G1 X97.352 Y114.111 E20.01535
G1 X97.116 Y113.301 E20.05744
G1 X96.937 Y112.499 E20.09844
G1 X96.804 Y111.661 E20.14077
G1 X96.727 Y110.838 E20.18201
G1 X96.7 Y110.006 E20.22354
G1 X96.726 Y109.174 E20.26507
G1 X96.802 Y108.356 E20.30606
G1 X96.934 Y107.518 E20.34838
G1 X97.112 Y106.716 E20.38936
G1 X97.348 Y105.9 E20.43174
G1 X97.626 Y105.125 E20.47282
G1 X97.962 Y104.347 E20.5151
G1 X98.334 Y103.613 E20.55615
G1 X98.759 Y102.893 E20.59787
G1 X99.234 Y102.191 E20.64015
G1 X99.737 Y101.541 E20.68116
G1 X100.297 Y100.904 E20.72347
G1 X100.903 Y100.298 E20.76623
G1 X101.54 Y99.738 E20.80854
G1 X102.2 Y99.227 E20.85019
G1 X102.868 Y98.774 E20.89045
G1 X103.099 Y98.637 E20.90385
G1 X103.4 Y98.459 E20.9213
G1 X103.4 Y98.808 E20.93115
G1 X103.4 Y98.809 E20.9312
G0 F3000 X103.4 Y99.009
G0 X102.954 Y99.256
G0 X102.61 Y99.908
;TYPE:SKIN
G1 F1800 X102.611 Y120.09 E21.93809
G1 X102.001 Y119.616 E21.97663
G1 X101.43 Y119.113 E22.01459
G1 X100.894 Y118.578 E22.05237
G1 X100.364 Y117.977 E22.09235
G1 X99.871 Y117.342 E22.13246
G1 X99.445 Y116.715 E22.17028
G1 X99.028 Y116.009 E22.21118
G1 X98.683 Y115.333 E22.24905
G1 X98.362 Y114.589 E22.28947
G1 X98.106 Y113.875 E22.32732
G1 X97.874 Y113.08 E22.36863
G1 X97.717 Y112.369 E22.40496
G1 X97.586 Y111.546 E22.44654
G1 X97.517 Y110.806 E22.48362
G1 X97.49 Y110.017 E22.523
G1 X97.516 Y109.198 E22.56388
G1 X97.585 Y108.469 E22.60042
G1 X97.712 Y107.661 E22.64122
G1 X97.874 Y106.926 E22.67877
G1 X98.1 Y106.144 E22.71938
G1 X98.366 Y105.403 E22.75866
G1 X98.673 Y104.693 E22.79725
G1 X99.027 Y103.993 E22.83639
G1 X99.424 Y103.319 E22.87541
G1 X99.872 Y102.656 E22.91533
G1 X100.341 Y102.05 E22.95356
G1 X100.873 Y101.444 E22.99379
G1 X101.443 Y100.874 E23.03401
G1 X102.049 Y100.342 E23.07424
G1 X102.61 Y99.908 E23.10963
G0 F3000 X102.3 Y100.603
G1 F1800 X102.149 Y101.017 E23.13854
G0 F3000 X102.43 Y101.864
G1 F1800 X101.568 Y101.002 E23.19936
G1 X101.498 Y100.932
G0 F3000 X101.284 Y101.284
G1 F1800 X102.43 Y102.43 E23.28021
G1 X102.5 Y102.5
G0 F3000 X102.43 Y102.995
G1 F1800 X101.001 Y101.567 E23.381
G1 X100.931 Y101.497
G0 F3000 X100.737 Y101.868
G1 F1800 X102.43 Y103.561 E23.50045
G1 X102.5 Y103.631
G0 F3000 X102.43 Y104.127
G1 F1800 X100.473 Y102.17 E23.63853
G1 X100.403 Y102.1
G0 F3000 X100.226 Y102.489
G1 F1800 X102.43 Y104.692 E23.794
G1 X102.5 Y104.762
G0 F3000 X102.43 Y105.258
G1 F1800 X99.982 Y102.811 E23.96668
G1 X99.912 Y102.741
G0 F3000 X99.755 Y103.149
G1 F1800 X102.43 Y105.824 E24.15542
G1 X102.5 Y105.894
G0 F3000 X102.43 Y106.389
G1 F1800 X99.53 Y103.49 E24.35999
G1 X99.46 Y103.42
G0 F3000 X99.32 Y103.846
G1 F1800 X102.43 Y106.955 E24.57939
G1 X102.5 Y107.025
G0 F3000 X102.43 Y107.521
G1 F1800 X99.117 Y104.209 E24.8131
G1 X99.047 Y104.139
G0 F3000 X98.928 Y104.585
G1 F1800 X102.43 Y108.086 E25.06015
G1 X102.5 Y108.156
G0 F3000 X102.43 Y108.652
G1 F1800 X98.748 Y104.971 E25.3199
G1 X98.678 Y104.901
G0 F3000 X98.577 Y105.365
G1 F1800 X102.43 Y109.218 E25.59175
G1 X102.5 Y109.288
G0 F3000 X102.43 Y109.783
G1 F1800 X98.422 Y105.776 E25.8745
G1 X98.352 Y105.706
G0 F3000 X98.273 Y106.193
G1 F1800 X102.43 Y110.35 E26.1678
G1 X102.5 Y110.42
G0 F3000 X102.43 Y110.916
G1 F1800 X98.146 Y106.631 E26.47009
G1 X98.076 Y106.561
G0 F3000 X98.024 Y107.075
G1 F1800 X102.43 Y111.481 E26.78096
G1 X102.5 Y111.551
G0 F3000 X102.43 Y112.047
G1 F1800 X97.922 Y107.538 E27.09906
G1 X97.852 Y107.468
G0 F3000 X97.837 Y108.019
G1 F1800 X102.43 Y112.613 E27.42316
G1 X102.5 Y112.683
G0 F3000 X102.43 Y113.178
G1 F1800 X97.761 Y108.509 E27.75258
G1 X97.691 Y108.439
G0 F3000 X97.712 Y109.025
G1 F1800 X102.43 Y113.744 E28.08549
G1 X102.5 Y113.814
G0 F3000 X102.43 Y114.31
G1 F1800 X97.684 Y109.564 E28.42035
G1 X97.614 Y109.494
G0 F3000 X97.673 Y110.118
G1 F1800 X102.43 Y114.875 E28.75598
G1 X102.5 Y114.945
G0 F3000 X102.43 Y115.441
G1 F1800 X97.693 Y110.704 E29.0902
G1 X97.623 Y110.634
G0 F3000 X97.745 Y111.321
G1 F1800 X102.43 Y116.007 E29.42079
G1 X102.5 Y116.077
G0 F3000 X102.43 Y116.572
G1 F1800 X97.837 Y111.979 E29.74485
G1 X97.767 Y111.909
G0 F3000 X97.969 Y112.677
G1 F1800 X102.43 Y117.138 E30.0596
G1 X102.5 Y117.208
G0 F3000 X102.43 Y117.704
G1 F1800 X98.166 Y113.439 E30.36048
G1 X98.096 Y113.369
G0 F3000 X98.442 Y114.281
G1 F1800 X102.43 Y118.269 E30.64186
G1 X102.5 Y118.339
G0 F3000 X102.43 Y118.835
G1 F1800 X98.842 Y115.247 E30.89501
G1 X98.772 Y115.177
G0 F3000 X99.523 Y116.494
G1 F1800 X102.43 Y119.401 E31.10012
G1 X102.5 Y119.471
G1 F1500 E24.60012
G0 F3000 X103 Y115.439
G0 X104.265 Y115.438
G0 X107.209 Y115.44
G0 X108.474 Y115.439
