;FLAVOR:Marlin
;TIME:2191
;Filament used: 2.21088m
;Layer height: 0.15
;Generated with Cura_SteamEngine 3.1.0
M190 S60
M104 S200
M109 S200
M82 ; absolute extrusion mode
G21 ;metric values
G90 ;absolute positioning
M82 ;set extruder to absolute mode
M107 ;start with the fan off
G28 X0 Y0 ;move X/Y to min endstops
G28 Z0 ;move Z to min endstops
G1 Z15.0 F9000 ;move the platform down 15mm
G92 E0 ;zero the extruded length
G1 F200 E3 ;extrude 3mm of feed stock
G92 E0 ;zero the extruded length again
G1 F9000
;Put printing message on LCD screen
M117 Printing...
;LAYER_COUNT:140
;LAYER:0
M107
G0 F3000 X97.132 Y98.17 Z0.3
;TYPE:SKIRT
G1 F1800 X98.533 Y96.808 E0.09748
G1 X99.022 Y96.403 E0.12916
G1 X100.901 Y95.083 E0.24372
G1 X101.385 Y94.791 E0.27192
G1 X101.87 Y94.584 E0.29823
G1 X106.682 Y92.887 E0.5528
G1 X107.227 Y92.737 E0.581
G1 X107.673 Y92.673 E0.60348
G1 X109.367 Y92.529 E0.68829
G1 X109.865 Y92.518 E0.71315
G1 X111.523 Y92.584 E0.79593
G1 X112.019 Y92.635 E0.8208
G1 X113.695 Y92.913 E0.90556
G1 X114.094 Y93 E0.92594
G1 X115.112 Y93.278 E0.97859
G1 X115.489 Y93.402 E0.99839
G1 X117.016 Y93.987 E1.07997
G1 X117.47 Y94.194 E1.10486
G1 X118.98 Y95.001 E1.19028
G1 X119.403 Y95.262 E1.21508
G1 X120.762 Y96.222 E1.29809
G1 X121.154 Y96.538 E1.32321
G1 X122.415 Y97.692 E1.40849
G1 X122.75 Y98.038 E1.43251
G1 X123.767 Y99.223 E1.51042
G1 X124.059 Y99.608 E1.53453
G1 X124.987 Y100.999 E1.61795
G1 X125.237 Y101.429 E1.64277
G1 X125.995 Y102.944 E1.72728
G1 X126.159 Y103.319 E1.7477
G1 X126.529 Y104.297 E1.79987
G1 X126.652 Y104.676 E1.81975
G1 X127.087 Y106.299 E1.90358
G1 X127.183 Y106.773 E1.92771
G1 X127.4 Y108.303 E2.0048
G1 X127.439 Y108.78 E2.02868
G1 X127.475 Y110.48 E2.11351
G1 X127.454 Y110.982 E2.13858
G1 X127.278 Y112.663 E2.2229
G1 X127.216 Y113.061 E2.243
G1 X127.014 Y114.032 E2.29248
G1 X126.924 Y114.385 E2.31065
G1 X126.483 Y115.829 E2.38598
G1 X126.315 Y116.28 E2.40999
G1 X125.619 Y117.853 E2.49581
G1 X125.388 Y118.297 E2.52078
G1 X124.539 Y119.707 E2.60289
G1 X124.324 Y120.027 E2.62212
G1 X123.723 Y120.837 E2.67244
G1 X123.46 Y121.157 E2.69311
G1 X122.294 Y122.429 E2.7792
G1 X121.949 Y122.762 E2.80312
G1 X120.776 Y123.768 E2.88021
G1 X120.392 Y124.059 E2.90425
G1 X119 Y124.988 E2.98774
G1 X118.569 Y125.239 E3.01263
G1 X117.055 Y125.996 E3.09708
G1 X116.68 Y126.16 E3.1175
G1 X115.701 Y126.53 E3.16971
G1 X115.328 Y126.65 E3.18926
G1 X113.751 Y127.075 E3.27074
G1 X113.276 Y127.173 E3.29494
G1 X111.695 Y127.399 E3.37462
G1 X111.223 Y127.438 E3.39825
G1 X109.572 Y127.477 E3.48064
G1 X109.086 Y127.459 E3.5049
G1 X107.524 Y127.305 E3.58321
G1 X106.966 Y127.21 E3.61145
G1 X106.575 Y127.092 E3.63182
G1 X101.923 Y125.436 E3.87818
G1 X101.405 Y125.21 E3.90638
G1 X101.04 Y124.993 E3.92756
G1 X99.378 Y123.881 E4.02733
G1 X98.925 Y123.528 E4.05598
G1 X97.708 Y122.432 E4.13769
G1 X97.427 Y122.153 E4.15744
G1 X96.736 Y121.394 E4.20865
G1 X96.496 Y121.103 E4.22747
G1 X95.563 Y119.861 E4.30497
G1 X95.296 Y119.458 E4.32909
G1 X94.459 Y118.007 E4.41266
G1 X94.28 Y117.658 E4.43223
G1 X93.882 Y116.779 E4.48037
G1 X93.736 Y116.409 E4.50021
G1 X93.18 Y114.763 E4.58689
G1 X93.054 Y114.298 E4.61092
G1 X92.739 Y112.784 E4.68808
G1 X92.669 Y112.307 E4.71213
G1 X92.53 Y110.667 E4.79424
G1 X92.519 Y110.179 E4.81859
G1 X92.582 Y108.498 E4.90252
G1 X92.636 Y107.974 E4.9288
G1 X92.947 Y106.155 E5.02087
G1 X93.062 Y105.668 E5.04583
G1 X93.512 Y104.185 E5.12315
G1 X93.679 Y103.734 E5.14714
G1 X94.357 Y102.194 E5.23109
G1 X94.587 Y101.749 E5.25608
G1 X95.454 Y100.303 E5.3402
G1 X95.735 Y99.894 E5.36495
G1 X96.77 Y98.572 E5.44872
G1 X97.132 Y98.17 E5.47571
G0 F3000 X97.411 Y98.457
G1 F1800 X98.812 Y97.095 E5.57319
G1 X99.252 Y96.73 E5.60171
G1 X101.131 Y95.41 E5.71627
G1 X101.591 Y95.135 E5.74301
G1 X102.003 Y94.961 E5.76532
G1 X106.815 Y93.264 E6.01989
G1 X107.332 Y93.124 E6.04661
G1 X107.707 Y93.072 E6.0655
G1 X109.401 Y92.928 E6.15031
G1 X109.849 Y92.918 E6.17267
G1 X111.507 Y92.984 E6.25545
G1 X111.953 Y93.03 E6.27782
G1 X113.629 Y93.308 E6.36258
G1 X113.988 Y93.386 E6.38091
G1 X115.006 Y93.664 E6.43356
G1 X115.346 Y93.775 E6.4514
G1 X116.873 Y94.36 E6.53298
G1 X117.282 Y94.547 E6.55542
G1 X118.792 Y95.354 E6.64084
G1 X119.172 Y95.589 E6.66313
G1 X120.531 Y96.549 E6.74614
G1 X120.884 Y96.833 E6.76874
G1 X122.145 Y97.987 E6.85402
G1 X122.447 Y98.298 E6.87565
G1 X123.464 Y99.483 E6.95356
G1 X123.727 Y99.83 E6.97528
G1 X124.655 Y101.221 E7.0587
G1 X124.88 Y101.608 E7.08104
G1 X125.638 Y103.123 E7.16555
G1 X125.785 Y103.46 E7.1839
G1 X126.155 Y104.438 E7.23606
G1 X126.265 Y104.78 E7.25399
G1 X126.7 Y106.403 E7.33782
G1 X126.787 Y106.829 E7.35951
G1 X127.004 Y108.359 E7.43661
G1 X127.039 Y108.789 E7.45813
G1 X127.075 Y110.489 E7.54296
G1 X127.056 Y110.94 E7.56548
G1 X126.88 Y112.621 E7.64981
G1 X126.825 Y112.979 E7.66788
G1 X126.623 Y113.95 E7.71736
G1 X126.541 Y114.269 E7.73379
G1 X126.1 Y115.713 E7.80911
G1 X125.949 Y116.118 E7.83068
G1 X125.253 Y117.691 E7.9165
G1 X125.045 Y118.091 E7.93899
G1 X124.196 Y119.501 E8.0211
G1 X124.003 Y119.789 E8.0384
G1 X123.402 Y120.599 E8.08872
G1 X123.165 Y120.887 E8.10733
G1 X121.999 Y122.159 E8.19341
G1 X121.689 Y122.459 E8.21494
G1 X120.516 Y123.465 E8.29203
G1 X120.17 Y123.726 E8.31365
G1 X118.778 Y124.655 E8.39715
G1 X118.39 Y124.881 E8.41955
G1 X116.876 Y125.638 E8.504
G1 X116.539 Y125.786 E8.52236
G1 X115.56 Y126.156 E8.57458
G1 X115.224 Y126.264 E8.59218
G1 X113.647 Y126.689 E8.67367
G1 X113.219 Y126.777 E8.69547
G1 X111.638 Y127.003 E8.77514
G1 X111.214 Y127.038 E8.79637
G1 X109.563 Y127.077 E8.87876
G1 X109.125 Y127.061 E8.90063
G1 X107.563 Y126.907 E8.97893
G1 X107.034 Y126.814 E9.00573
G1 X106.709 Y126.716 E9.02267
G1 X102.057 Y125.06 E9.26902
G1 X101.566 Y124.843 E9.2958
G1 X101.262 Y124.66 E9.31351
G1 X99.6 Y123.548 E9.41327
G1 X99.193 Y123.231 E9.43901
G1 X97.976 Y122.135 E9.52072
G1 X97.723 Y121.884 E9.5385
G1 X97.032 Y121.125 E9.58971
G1 X96.816 Y120.863 E9.60665
G1 X95.883 Y119.621 E9.68415
G1 X95.643 Y119.258 E9.70586
G1 X94.806 Y117.807 E9.78943
G1 X94.645 Y117.493 E9.80703
G1 X94.247 Y116.614 E9.85517
G1 X94.115 Y116.281 E9.87304
G1 X93.559 Y114.635 E9.95972
G1 X93.445 Y114.216 E9.98139
G1 X93.13 Y112.702 E10.05854
G1 X93.068 Y112.273 E10.08016
G1 X92.929 Y110.633 E10.16228
G1 X92.919 Y110.194 E10.18418
G1 X92.982 Y108.513 E10.26811
G1 X93.03 Y108.041 E10.29178
G1 X93.341 Y106.222 E10.38384
G1 X93.445 Y105.784 E10.4063
G1 X93.895 Y104.301 E10.48362
G1 X94.045 Y103.895 E10.50522
G1 X94.723 Y102.355 E10.58916
G1 X94.93 Y101.955 E10.61163
G1 X95.797 Y100.509 E10.69575
G1 X96.05 Y100.141 E10.71803
G1 X97.085 Y98.819 E10.80179
G1 X97.411 Y98.457 E10.8261
G0 F3000 X97.689 Y98.744
G1 F1800 X99.09 Y97.382 E10.92358
G1 X99.482 Y97.058 E10.94895
G1 X101.361 Y95.738 E11.06351
G1 X101.796 Y95.481 E11.08872
G1 X102.136 Y95.338 E11.10712
G1 X106.948 Y93.641 E11.36169
G1 X107.436 Y93.511 E11.38688
G1 X107.741 Y93.47 E11.40223
G1 X109.435 Y93.326 E11.48705
G1 X109.833 Y93.318 E11.50691
G1 X111.491 Y93.384 E11.5897
G1 X111.888 Y93.424 E11.6096
G1 X113.564 Y93.702 E11.69436
G1 X113.883 Y93.772 E11.71066
G1 X114.901 Y94.05 E11.7633
G1 X115.203 Y94.149 E11.77916
G1 X116.73 Y94.734 E11.86074
G1 X117.093 Y94.9 E11.88066
G1 X118.603 Y95.707 E11.96607
G1 X118.941 Y95.915 E11.98587
G1 X120.3 Y96.875 E12.06888
G1 X120.614 Y97.128 E12.089
G1 X121.875 Y98.282 E12.17428
G1 X122.143 Y98.559 E12.19351
G1 X123.16 Y99.744 E12.27142
G1 X123.394 Y100.052 E12.29072
G1 X124.322 Y101.443 E12.37414
G1 X124.522 Y101.787 E12.39399
G1 X125.28 Y103.302 E12.47851
G1 X125.411 Y103.602 E12.49484
G1 X125.781 Y104.58 E12.54701
G1 X125.879 Y104.884 E12.56294
G1 X126.314 Y106.507 E12.64677
G1 X126.391 Y106.886 E12.66607
G1 X126.608 Y108.416 E12.74316
G1 X126.639 Y108.797 E12.76223
G1 X126.675 Y110.497 E12.84707
G1 X126.659 Y110.898 E12.86709
G1 X126.483 Y112.579 E12.95141
G1 X126.433 Y112.898 E12.96752
G1 X126.231 Y113.869 E13.017
G1 X126.158 Y114.152 E13.03158
G1 X125.717 Y115.596 E13.10691
G1 X125.583 Y115.956 E13.12607
G1 X124.887 Y117.529 E13.21189
G1 X124.702 Y117.885 E13.23191
G1 X123.853 Y119.295 E13.31402
G1 X123.682 Y119.551 E13.32938
G1 X123.081 Y120.361 E13.3797
G1 X122.87 Y120.616 E13.39621
G1 X121.704 Y121.888 E13.4823
G1 X121.428 Y122.155 E13.50146
G1 X120.255 Y123.161 E13.57855
G1 X119.948 Y123.394 E13.59778
G1 X118.556 Y124.323 E13.68127
G1 X118.211 Y124.523 E13.70117
G1 X116.697 Y125.28 E13.78562
G1 X116.397 Y125.411 E13.80195
G1 X115.418 Y125.781 E13.85416
G1 X115.12 Y125.878 E13.8698
G1 X113.543 Y126.303 E13.95128
G1 X113.163 Y126.381 E13.97064
G1 X111.582 Y126.607 E14.05031
G1 X111.205 Y126.638 E14.06919
G1 X109.554 Y126.677 E14.15158
G1 X109.164 Y126.663 E14.17105
G1 X107.602 Y126.509 E14.24935
G1 X107.104 Y126.419 E14.2746
G1 X106.843 Y126.339 E14.28822
G1 X102.191 Y124.683 E14.53458
G1 X101.729 Y124.476 E14.55983
G1 X101.485 Y124.328 E14.57407
G1 X99.823 Y123.216 E14.67384
G1 X99.461 Y122.934 E14.69673
G1 X98.244 Y121.838 E14.77844
G1 X98.019 Y121.614 E14.79428
G1 X97.328 Y120.855 E14.84549
G1 X97.135 Y120.623 E14.86054
G1 X96.202 Y119.381 E14.93804
G1 X95.989 Y119.058 E14.95735
G1 X95.152 Y117.607 E15.04092
G1 X95.009 Y117.328 E15.05656
G1 X94.611 Y116.449 E15.1047
G1 X94.494 Y116.153 E15.12058
G1 X93.938 Y114.507 E15.20726
G1 X93.837 Y114.135 E15.22649
G1 X93.522 Y112.621 E15.30364
G1 X93.466 Y112.239 E15.3229
G1 X93.327 Y110.599 E15.40501
G1 X93.318 Y110.209 E15.42447
G1 X93.381 Y108.528 E15.5084
G1 X93.425 Y108.109 E15.52942
G1 X93.736 Y106.29 E15.62149
G1 X93.828 Y105.9 E15.64148
G1 X94.278 Y104.417 E15.71879
G1 X94.411 Y104.057 E15.73794
G1 X95.089 Y102.517 E15.82189
G1 X95.274 Y102.16 E15.84195
G1 X96.141 Y100.714 E15.92606
G1 X96.365 Y100.387 E15.94584
G1 X97.4 Y99.065 E16.0296
G1 X97.689 Y98.744 E16.05115
G1 F1500 E9.55115
G0 F3000 X100.957 Y99.1
G0 X101.804 Y100.064
G0 X102.504 Y99.555
G0 X102.604 Y99.555
;TYPE:WALL-INNER
G1 F1500 E16.05115
G1 F1800 X102.604 Y99.785 E16.06263
G1 X102.604 Y120.219 E17.08208
G1 X102.604 Y120.437 E17.09296
G1 X102.603 Y120.562 E17.0992
G1 X102.418 Y120.437 E17.09946
G1 X102.246 Y120.304 E17.1077
G1 X101.778 Y119.94 E17.13728
G1 X101.164 Y119.398 E17.17814
G1 X100.602 Y118.836 E17.21779
G1 X100.056 Y118.217 E17.25897
G1 X99.563 Y117.582 E17.29908
G1 X99.109 Y116.914 E17.33938
G1 X98.692 Y116.208 E17.38028
G1 X98.331 Y115.5 E17.41993
G1 X97.999 Y114.732 E17.46167
G1 X97.735 Y113.995 E17.50073
G1 X97.5 Y113.189 E17.54262
G1 X97.331 Y112.43 E17.58141
G1 X97.2 Y111.607 E17.62299
G1 X97.127 Y110.821 E17.66237
G1 X97.1 Y110.005 E17.7031
G1 X97.126 Y109.186 E17.74398
G1 X97.199 Y108.408 E17.78297
G1 X97.328 Y107.589 E17.82433
G1 X97.499 Y106.817 E17.86378
G1 X97.725 Y106.035 E17.90439
G1 X98.003 Y105.26 E17.94547
G1 X98.319 Y104.528 E17.98525
G1 X98.691 Y103.794 E18.0263
G1 X99.095 Y103.11 E18.06593
G1 X99.556 Y102.428 E18.107
G1 X100.048 Y101.793 E18.14708
G1 X100.58 Y101.187 E18.18731
G1 X101.186 Y100.581 E18.23007
G1 X101.792 Y100.049 E18.2703
G1 X102.248 Y99.695 E18.2991
G1 X102.43 Y99.555 E18.30764
G1 X102.604 Y99.437 E18.31813
G1 X102.604 Y99.555
G1 F1500 E11.81813
G0 F3000 X102.504 Y99.555
G0 X102.558 Y99.525
G0 X103.004 Y98.774
;TYPE:WALL-OUTER
G1 F1500 E18.31813
G1 F1800 X103.004 Y99.023 E18.33055
G1 X103.004 Y120.977 E19.42584
G1 X103.004 Y121.226 E19.43827
G1 X103.003 Y121.306 E19.44226
G1 X102.868 Y121.226
G1 X102.663 Y121.087 E19.451
G1 X102.188 Y120.764 E19.47966
G1 X101.518 Y120.244 E19.52197
G1 X100.891 Y119.691 E19.56368
G1 X100.309 Y119.109 E19.60474
G1 X99.756 Y118.482 E19.64645
G1 X99.236 Y117.812 E19.68876
G1 X98.774 Y117.132 E19.72978
G1 X98.342 Y116.402 E19.7721
G1 X97.968 Y115.668 E19.8132
G1 X97.632 Y114.891 E19.85543
G1 X97.352 Y114.111 E19.89678
G1 X97.116 Y113.301 E19.93887
G1 X96.937 Y112.499 E19.97986
G1 X96.804 Y111.661 E20.0222
G1 X96.727 Y110.838 E20.06343
G1 X96.7 Y110.006 E20.10496
G1 X96.726 Y109.174 E20.14649
G1 X96.802 Y108.356 E20.18748
G1 X96.934 Y107.518 E20.2298
G1 X97.112 Y106.716 E20.27079
G1 X97.348 Y105.9 E20.31317
G1 X97.626 Y105.125 E20.35424
G1 X97.962 Y104.347 E20.39652
G1 X98.334 Y103.613 E20.43758
G1 X98.759 Y102.893 E20.47929
G1 X99.234 Y102.191 E20.52158
G1 X99.737 Y101.541 E20.56258
G1 X100.297 Y100.904 E20.6049
G1 X100.903 Y100.298 E20.64765
G1 X101.54 Y99.738 E20.68997
G1 X102.2 Y99.227 E20.73161
G1 X102.662 Y98.913 E20.75948
G1 X102.868 Y98.774 E20.76826
G1 X103.004 Y98.693 E20.77615
G1 X103.004 Y98.774
G0 F3000 X103.004 Y98.974
G0 X102.558 Y99.525
G0 X102.214 Y100.215
;TYPE:SKIN
G1 F1800 X102.213 Y119.784 E21.75246
G1 X102.018 Y119.632 E21.76479
G1 X101.422 Y119.106 E21.80445
G1 X100.894 Y118.578 E21.8417
G1 X100.364 Y117.977 E21.88168
G1 X99.871 Y117.342 E21.92179
G1 X99.445 Y116.715 E21.95961
G1 X99.028 Y116.009 E22.00051
G1 X98.683 Y115.333 E22.03838
G1 X98.362 Y114.589 E22.0788
G1 X98.106 Y113.875 E22.11665
G1 X97.874 Y113.08 E22.15796
G1 X97.717 Y112.369 E22.19429
G1 X97.586 Y111.546 E22.23587
G1 X97.517 Y110.806 E22.27294
G1 X97.49 Y110.017 E22.31233
G1 X97.516 Y109.198 E22.35321
G1 X97.585 Y108.469 E22.38974
G1 X97.712 Y107.661 E22.43055
G1 X97.874 Y106.926 E22.4681
G1 X98.1 Y106.144 E22.50871
G1 X98.366 Y105.403 E22.54799
G1 X98.673 Y104.693 E22.58658
G1 X99.027 Y103.993 E22.62572
G1 X99.424 Y103.319 E22.66474
G1 X99.872 Y102.656 E22.70466
G1 X100.341 Y102.05 E22.74289
G1 X100.873 Y101.444 E22.78312
G1 X101.443 Y100.874 E22.82334
G1 X102.049 Y100.342 E22.86357
G1 X102.214 Y100.215 E22.87396
G0 F3000 X101.951 Y100.82
G1 F1800 X101.8 Y101.234 E22.89611
G0 F3000 X102.033 Y102.033
G1 F1800 X101.284 Y101.284 E22.94895
G1 X101.214 Y101.214
G0 F3000 X101.001 Y101.567
G1 F1800 X102.033 Y102.599 E23.02177
G1 X102.103 Y102.669
G0 F3000 X102.033 Y103.164
G1 F1800 X100.737 Y101.868 E23.11321
G1 X100.667 Y101.798
G0 F3000 X100.473 Y102.17
G1 F1800 X102.033 Y103.73 E23.22327
G1 X102.103 Y103.8
G0 F3000 X102.033 Y104.296
G1 F1800 X100.226 Y102.489 E23.35077
G1 X100.156 Y102.419
G0 F3000 X99.982 Y102.811
G1 F1800 X102.033 Y104.861 E23.49544
G1 X102.103 Y104.931
G0 F3000 X102.033 Y105.427
G1 F1800 X99.755 Y103.149 E23.65617
G1 X99.685 Y103.079
G0 F3000 X99.53 Y103.49
G1 F1800 X102.033 Y105.993 E23.83277
G1 X102.103 Y106.063
G0 F3000 X102.033 Y106.558
G1 F1800 X99.32 Y103.846 E24.02415
G1 X99.25 Y103.776
G0 F3000 X99.117 Y104.209
G1 F1800 X102.033 Y107.124 E24.22985
G1 X102.103 Y107.194
G0 F3000 X102.033 Y107.69
G1 F1800 X98.928 Y104.585 E24.44893
G1 X98.858 Y104.515
G0 F3000 X98.748 Y104.971
G1 F1800 X102.033 Y108.255 E24.68067
G1 X102.103 Y108.325
G0 F3000 X102.033 Y108.821
G1 F1800 X98.577 Y105.365 E24.92451
G1 X98.507 Y105.295
G0 F3000 X98.422 Y105.776
G1 F1800 X102.033 Y109.387 E25.17928
G1 X102.103 Y109.457
G0 F3000 X102.033 Y109.952
G1 F1800 X98.273 Y106.193 E25.44453
G1 X98.203 Y106.123
G0 F3000 X98.146 Y106.631
G1 F1800 X102.033 Y110.518 E25.71878
G1 X102.103 Y110.588
G0 F3000 X102.033 Y111.084
G1 F1800 X98.024 Y107.075 E26.00164
G1 X97.954 Y107.005
G0 F3000 X97.922 Y107.538
G1 F1800 X102.033 Y111.65 E26.29173
G1 X102.103 Y111.72
G0 F3000 X102.033 Y112.215
G1 F1800 X97.837 Y108.019 E26.58778
G1 X97.767 Y107.949
G0 F3000 X97.761 Y108.509
G1 F1800 X102.033 Y112.781 E26.88919
G1 X102.103 Y112.851
G0 F3000 X102.033 Y113.347
G1 F1800 X97.712 Y109.025 E27.1941
G1 X97.642 Y108.955
G0 F3000 X97.684 Y109.564
G1 F1800 X102.033 Y113.912 E27.50091
G1 X102.103 Y113.982
G0 F3000 X102.033 Y114.478
G1 F1800 X97.673 Y110.118 E27.80853
G1 X97.603 Y110.048
G0 F3000 X97.693 Y110.704
G1 F1800 X102.033 Y115.044 E28.11474
G1 X102.103 Y115.114
G0 F3000 X102.033 Y115.609
G1 F1800 X97.745 Y111.321 E28.41728
G1 X97.675 Y111.251
G0 F3000 X97.837 Y111.979
G1 F1800 X102.033 Y116.175 E28.71333
G1 X102.103 Y116.245
G0 F3000 X102.033 Y116.741
G1 F1800 X97.969 Y112.677 E29.00007
G1 X97.899 Y112.607
G0 F3000 X98.166 Y113.439
G1 F1800 X102.033 Y117.306 E29.27291
G1 X102.103 Y117.376
G0 F3000 X102.033 Y117.872
G1 F1800 X98.442 Y114.281 E29.52627
G1 X98.372 Y114.211
G0 F3000 X98.842 Y115.247
G1 F1800 X102.033 Y118.438 E29.75141
G1 X102.103 Y118.508
G0 F3000 X102.033 Y119.003
G1 F1800 X99.523 Y116.494 E29.92847
G1 X99.453 Y116.424
