;FLAVOR:Marlin
;TIME:2077
;Filament used: 2.07479m
;Layer height: 0.15
;Generated with Cura_SteamEngine 3.1.0
M190 S60
M104 S200
M109 S200
M82 ; absolute extrusion mode
G21 ;metric values
G90 ;absolute positioning
M82 ;set extruder to absolute mode
M107 ;start with the fan off
G28 X0 Y0 ;move X/Y to min endstops
G28 Z0 ;move Z to min endstops
G1 Z15.0 F9000 ;move the platform down 15mm
G92 E0 ;zero the extruded length
G1 F200 E3 ;extrude 3mm of feed stock
G92 E0 ;zero the extruded length again
G1 F9000
;Put printing message on LCD screen
M117 Printing...
;LAYER_COUNT:140
;LAYER:0
M107
G0 F3000 X97.132 Y98.17 Z0.3
;TYPE:SKIRT
G1 F1800 X98.533 Y96.808 E0.09748
G1 X98.926 Y96.472 E0.12328
G1 X100.158 Y95.551 E0.20002
G1 X100.557 Y95.289 E0.22383
G1 X102.028 Y94.442 E0.30852
G1 X102.48 Y94.218 E0.33369
G1 X104.024 Y93.572 E0.41719
G1 X104.509 Y93.405 E0.44278
G1 X106.279 Y92.919 E0.53435
G1 X106.68 Y92.83 E0.55484
G1 X107.34 Y92.72 E0.58823
G1 X107.98 Y92.666 E0.62027
G1 X111.862 Y92.649 E0.81394
G1 X112.627 Y92.719 E0.85227
G1 X113.99 Y92.978 E0.92149
G1 X114.419 Y93.085 E0.94355
G1 X115.866 Y93.53 E1.01907
G1 X116.311 Y93.696 E1.04277
G1 X117.832 Y94.37 E1.12577
G1 X118.273 Y94.599 E1.15056
G1 X119.726 Y95.473 E1.23515
G1 X120.135 Y95.755 E1.25994
G1 X121.44 Y96.78 E1.34273
G1 X121.835 Y97.135 E1.36922
G1 X123.172 Y98.508 E1.46483
G1 X123.504 Y98.897 E1.49035
G1 X124.433 Y100.134 E1.56753
G1 X124.698 Y100.535 E1.59151
G1 X125.533 Y101.98 E1.67477
G1 X125.712 Y102.328 E1.6943
G1 X126.116 Y103.218 E1.74306
G1 X126.263 Y103.59 E1.76301
G1 X126.819 Y105.235 E1.84964
G1 X126.946 Y105.702 E1.87379
G1 X127.259 Y107.208 E1.95053
G1 X127.328 Y107.681 E1.97438
G1 X127.469 Y109.33 E2.05695
G1 X127.481 Y109.821 E2.08145
G1 X127.418 Y111.496 E2.16508
G1 X127.363 Y112.026 E2.19166
G1 X127.04 Y113.897 E2.28638
G1 X126.924 Y114.385 E2.31141
G1 X126.483 Y115.829 E2.38674
G1 X126.315 Y116.28 E2.41075
G1 X125.619 Y117.853 E2.49656
G1 X125.388 Y118.297 E2.52153
G1 X124.539 Y119.707 E2.60365
G1 X124.324 Y120.027 E2.62288
G1 X123.723 Y120.837 E2.6732
G1 X123.46 Y121.157 E2.69386
G1 X122.294 Y122.429 E2.77995
G1 X121.949 Y122.762 E2.80387
G1 X120.776 Y123.768 E2.88097
G1 X120.392 Y124.059 E2.90501
G1 X119 Y124.988 E2.9885
G1 X118.569 Y125.239 E3.01338
G1 X117.055 Y125.996 E3.09783
G1 X116.68 Y126.16 E3.11825
G1 X115.701 Y126.53 E3.17047
G1 X115.322 Y126.652 E3.19033
G1 X113.687 Y127.09 E3.27478
G1 X113.066 Y127.205 E3.30629
G1 X111.865 Y127.33 E3.36653
G1 X111.377 Y127.35 E3.39089
G1 X107.571 Y127.28 E3.58081
G1 X107.008 Y127.23 E3.60901
G1 X106.719 Y127.172 E3.62371
G1 X105.197 Y126.81 E3.70176
G1 X104.729 Y126.668 E3.72616
G1 X103.107 Y126.065 E3.8125
G1 X102.642 Y125.858 E3.83789
G1 X101.135 Y125.067 E3.9228
G1 X100.706 Y124.806 E3.94786
G1 X99.322 Y123.841 E4.03203
G1 X98.937 Y123.536 E4.05654
G1 X97.711 Y122.435 E4.13874
G1 X97.426 Y122.152 E4.15878
G1 X96.736 Y121.394 E4.20992
G1 X96.496 Y121.103 E4.22874
G1 X95.563 Y119.861 E4.30624
G1 X95.296 Y119.458 E4.33036
G1 X94.459 Y118.007 E4.41393
G1 X94.28 Y117.658 E4.4335
G1 X93.882 Y116.779 E4.48164
G1 X93.736 Y116.409 E4.50148
G1 X93.18 Y114.763 E4.58816
G1 X93.054 Y114.298 E4.61219
G1 X92.739 Y112.784 E4.68935
G1 X92.669 Y112.307 E4.7134
G1 X92.53 Y110.667 E4.79551
G1 X92.519 Y110.179 E4.81986
G1 X92.582 Y108.498 E4.90379
G1 X92.636 Y107.974 E4.93007
G1 X92.947 Y106.155 E5.02214
G1 X93.062 Y105.668 E5.0471
G1 X93.512 Y104.185 E5.12442
G1 X93.679 Y103.734 E5.14841
G1 X94.357 Y102.194 E5.23236
G1 X94.587 Y101.749 E5.25735
G1 X95.454 Y100.303 E5.34147
G1 X95.735 Y99.894 E5.36622
G1 X96.77 Y98.572 E5.44999
G1 X97.132 Y98.17 E5.47698
G0 F3000 X97.411 Y98.457
G1 F1800 X98.812 Y97.095 E5.57446
G1 X99.165 Y96.793 E5.59763
G1 X100.397 Y95.872 E5.67438
G1 X100.757 Y95.635 E5.69588
G1 X102.228 Y94.788 E5.78056
G1 X102.634 Y94.587 E5.80317
G1 X104.178 Y93.941 E5.88667
G1 X104.615 Y93.79 E5.90973
G1 X106.385 Y93.304 E6.00131
G1 X106.746 Y93.225 E6.01974
G1 X107.406 Y93.115 E6.05313
G1 X107.982 Y93.066 E6.08197
G1 X111.864 Y93.049 E6.27564
G1 X112.552 Y93.112 E6.31011
G1 X113.915 Y93.371 E6.37933
G1 X114.301 Y93.467 E6.39917
G1 X115.748 Y93.912 E6.4747
G1 X116.148 Y94.062 E6.49601
G1 X117.669 Y94.736 E6.57901
G1 X118.067 Y94.942 E6.60137
G1 X119.52 Y95.816 E6.68596
G1 X119.888 Y96.07 E6.70827
G1 X121.193 Y97.095 E6.79106
G1 X121.548 Y97.414 E6.81487
G1 X122.885 Y98.787 E6.91048
G1 X123.185 Y99.137 E6.93348
G1 X124.114 Y100.374 E7.01066
G1 X124.352 Y100.735 E7.03223
G1 X125.187 Y102.18 E7.1155
G1 X125.348 Y102.493 E7.13306
G1 X125.752 Y103.383 E7.18182
G1 X125.884 Y103.718 E7.19978
G1 X126.44 Y105.363 E7.28641
G1 X126.555 Y105.783 E7.30814
G1 X126.868 Y107.289 E7.38488
G1 X126.93 Y107.715 E7.40636
G1 X127.071 Y109.364 E7.48893
G1 X127.081 Y109.806 E7.51098
G1 X127.018 Y111.481 E7.59461
G1 X126.969 Y111.958 E7.61853
G1 X126.646 Y113.829 E7.71326
G1 X126.541 Y114.269 E7.73582
G1 X126.1 Y115.713 E7.81115
G1 X125.949 Y116.118 E7.83271
G1 X125.253 Y117.691 E7.91853
G1 X125.045 Y118.091 E7.94102
G1 X124.196 Y119.501 E8.02314
G1 X124.003 Y119.789 E8.04043
G1 X123.402 Y120.599 E8.09075
G1 X123.165 Y120.887 E8.10936
G1 X121.999 Y122.159 E8.19545
G1 X121.689 Y122.459 E8.21697
G1 X120.516 Y123.465 E8.29407
G1 X120.17 Y123.726 E8.31569
G1 X118.778 Y124.655 E8.39918
G1 X118.39 Y124.881 E8.42158
G1 X116.876 Y125.638 E8.50603
G1 X116.539 Y125.786 E8.5244
G1 X115.56 Y126.156 E8.57661
G1 X115.219 Y126.265 E8.59447
G1 X113.584 Y126.703 E8.67892
G1 X113.025 Y126.807 E8.70728
G1 X111.824 Y126.932 E8.76753
G1 X111.385 Y126.95 E8.78945
G1 X107.579 Y126.88 E8.97936
G1 X106.812 Y126.783 E9.01793
G1 X105.29 Y126.421 E9.09598
G1 X104.869 Y126.293 E9.11794
G1 X103.247 Y125.69 E9.20427
G1 X102.828 Y125.504 E9.22714
G1 X101.321 Y124.713 E9.31205
G1 X100.935 Y124.478 E9.3346
G1 X99.551 Y123.513 E9.41877
G1 X99.205 Y123.238 E9.44082
G1 X97.979 Y122.137 E9.52303
G1 X97.722 Y121.882 E9.54109
G1 X97.032 Y121.124 E9.59223
G1 X96.816 Y120.863 E9.60914
G1 X95.883 Y119.621 E9.68664
G1 X95.643 Y119.258 E9.70835
G1 X94.806 Y117.807 E9.79192
G1 X94.645 Y117.493 E9.80952
G1 X94.247 Y116.614 E9.85766
G1 X94.115 Y116.281 E9.87553
G1 X93.559 Y114.635 E9.96221
G1 X93.445 Y114.216 E9.98387
G1 X93.13 Y112.702 E10.06102
G1 X93.068 Y112.273 E10.08265
G1 X92.929 Y110.633 E10.16476
G1 X92.919 Y110.194 E10.18667
G1 X92.982 Y108.513 E10.2706
G1 X93.03 Y108.041 E10.29426
G1 X93.341 Y106.222 E10.38633
G1 X93.445 Y105.784 E10.40879
G1 X93.895 Y104.301 E10.48611
G1 X94.045 Y103.895 E10.5077
G1 X94.723 Y102.355 E10.59165
G1 X94.93 Y101.955 E10.61412
G1 X95.797 Y100.509 E10.69824
G1 X96.05 Y100.141 E10.72052
G1 X97.085 Y98.819 E10.80428
G1 X97.411 Y98.457 E10.82858
G0 F3000 X97.689 Y98.744
G1 F1800 X99.09 Y97.382 E10.92607
G1 X99.405 Y97.113 E10.94673
G1 X100.637 Y96.192 E11.02347
G1 X100.956 Y95.982 E11.04253
G1 X102.427 Y95.135 E11.12721
G1 X102.789 Y94.956 E11.14736
G1 X104.333 Y94.31 E11.23086
G1 X104.721 Y94.176 E11.25134
G1 X106.491 Y93.69 E11.34291
G1 X106.812 Y93.62 E11.3593
G1 X107.472 Y93.51 E11.39269
G1 X107.984 Y93.466 E11.41832
G1 X111.866 Y93.449 E11.612
G1 X112.477 Y93.505 E11.64261
G1 X113.84 Y93.764 E11.71183
G1 X114.184 Y93.849 E11.72951
G1 X115.631 Y94.294 E11.80503
G1 X115.986 Y94.427 E11.82395
G1 X117.507 Y95.101 E11.90695
G1 X117.86 Y95.285 E11.92681
G1 X119.313 Y96.159 E12.0114
G1 X119.641 Y96.384 E12.03124
G1 X120.946 Y97.409 E12.11403
G1 X121.262 Y97.694 E12.13526
G1 X122.599 Y99.067 E12.23087
G1 X122.865 Y99.377 E12.25125
G1 X123.794 Y100.614 E12.32843
G1 X124.006 Y100.935 E12.34763
G1 X124.841 Y102.38 E12.43089
G1 X124.984 Y102.658 E12.44648
G1 X125.388 Y103.548 E12.49525
G1 X125.506 Y103.846 E12.51124
G1 X126.062 Y105.491 E12.59787
G1 X126.163 Y105.865 E12.6172
G1 X126.476 Y107.371 E12.69394
G1 X126.531 Y107.749 E12.71299
G1 X126.672 Y109.398 E12.79556
G1 X126.682 Y109.791 E12.81518
G1 X126.619 Y111.466 E12.8988
G1 X126.574 Y111.89 E12.92007
G1 X126.251 Y113.761 E13.0148
G1 X126.158 Y114.152 E13.03485
G1 X125.717 Y115.596 E13.11018
G1 X125.583 Y115.956 E13.12934
G1 X124.887 Y117.529 E13.21516
G1 X124.702 Y117.885 E13.23517
G1 X123.853 Y119.295 E13.31729
G1 X123.682 Y119.551 E13.33264
G1 X123.081 Y120.361 E13.38296
G1 X122.87 Y120.616 E13.39948
G1 X121.704 Y121.888 E13.48557
G1 X121.428 Y122.155 E13.50472
G1 X120.255 Y123.161 E13.58182
G1 X119.948 Y123.394 E13.60105
G1 X118.556 Y124.323 E13.68454
G1 X118.211 Y124.523 E13.70443
G1 X116.697 Y125.28 E13.78888
G1 X116.397 Y125.411 E13.80522
G1 X115.418 Y125.781 E13.85743
G1 X115.115 Y125.879 E13.87332
G1 X113.48 Y126.317 E13.95776
G1 X112.983 Y126.409 E13.98298
G1 X111.782 Y126.534 E14.04322
G1 X111.392 Y126.55 E14.0627
G1 X107.586 Y126.48 E14.25261
G1 X106.905 Y126.394 E14.28686
G1 X105.383 Y126.032 E14.36491
G1 X105.008 Y125.918 E14.38446
G1 X103.386 Y125.315 E14.47079
G1 X103.014 Y125.149 E14.49112
G1 X101.507 Y124.358 E14.57603
G1 X101.164 Y124.15 E14.59604
G1 X99.78 Y123.185 E14.68022
G1 X99.472 Y122.941 E14.69982
G1 X98.246 Y121.84 E14.78203
G1 X98.018 Y121.613 E14.79808
G1 X97.328 Y120.855 E14.84922
G1 X97.135 Y120.623 E14.86428
G1 X96.202 Y119.381 E14.94178
G1 X95.989 Y119.058 E14.96108
G1 X95.152 Y117.607 E15.04465
G1 X95.009 Y117.328 E15.06029
G1 X94.611 Y116.449 E15.10843
G1 X94.494 Y116.153 E15.12431
G1 X93.938 Y114.507 E15.21099
G1 X93.837 Y114.135 E15.23022
G1 X93.522 Y112.621 E15.30737
G1 X93.466 Y112.239 E15.32663
G1 X93.327 Y110.599 E15.40875
G1 X93.318 Y110.209 E15.42821
G1 X93.381 Y108.528 E15.51213
G1 X93.425 Y108.109 E15.53315
G1 X93.736 Y106.29 E15.62522
G1 X93.828 Y105.9 E15.64521
G1 X94.278 Y104.417 E15.72253
G1 X94.411 Y104.057 E15.74167
G1 X95.089 Y102.517 E15.82562
G1 X95.274 Y102.16 E15.84568
G1 X96.141 Y100.714 E15.9298
G1 X96.365 Y100.387 E15.94957
G1 X97.4 Y99.065 E16.03334
G1 X97.689 Y98.744 E16.05488
G1 F1500 E9.55488
G0 F3000 X103.149 Y97.605
G0 X103.802 Y98.709
G0 X107.3 Y97.618
G0 X107.4 Y97.618
;TYPE:WALL-INNER
G1 F1500 E16.05488
G1 F1800 X107.4 Y97.619 E16.05493
G1 X107.4 Y122.381 E17.29032
G1 X107.4 Y122.382 E17.29037
G1 X107.4 Y122.631 E17.30279
G1 X107.156 Y122.577 E17.31039
G1 X106.783 Y122.492 E17.32947
G1 X105.996 Y122.262 E17.37038
G1 X105.235 Y121.988 E17.41073
G1 X104.495 Y121.666 E17.45099
G1 X103.774 Y121.298 E17.49138
G1 X103.08 Y120.885 E17.53167
G1 X102.412 Y120.43 E17.57199
G1 X101.752 Y119.917 E17.6137
G1 X101.172 Y119.406 E17.65226
G1 X100.602 Y118.836 E17.69248
G1 X100.056 Y118.217 E17.73366
G1 X99.563 Y117.582 E17.77377
G1 X99.109 Y116.914 E17.81406
G1 X98.692 Y116.208 E17.85497
G1 X98.331 Y115.5 E17.89462
G1 X97.999 Y114.732 E17.93636
G1 X97.735 Y113.995 E17.97542
G1 X97.5 Y113.189 E18.0173
G1 X97.331 Y112.43 E18.0561
G1 X97.2 Y111.607 E18.09767
G1 X97.127 Y110.821 E18.13706
G1 X97.1 Y110.005 E18.17779
G1 X97.126 Y109.186 E18.21867
G1 X97.199 Y108.408 E18.25765
G1 X97.328 Y107.589 E18.29902
G1 X97.499 Y106.817 E18.33847
G1 X97.725 Y106.035 E18.37908
G1 X98.003 Y105.26 E18.42015
G1 X98.319 Y104.528 E18.45993
G1 X98.691 Y103.794 E18.50099
G1 X99.095 Y103.11 E18.54062
G1 X99.556 Y102.428 E18.58169
G1 X100.048 Y101.793 E18.62176
G1 X100.58 Y101.187 E18.662
G1 X101.186 Y100.581 E18.70475
G1 X101.792 Y100.049 E18.74498
G1 X102.427 Y99.557 E18.78506
G1 X103.109 Y99.096 E18.82613
G1 X103.793 Y98.692 E18.86576
G1 X104.52 Y98.323 E18.90644
G1 X105.264 Y98.002 E18.94686
G1 X106.034 Y97.726 E18.98767
G1 X106.811 Y97.501 E19.02803
G1 X107.157 Y97.424 E19.04571
G1 X107.4 Y97.37 E19.05813
G1 X107.4 Y97.618 E19.06568
G1 F1500 E12.56568
G0 F3000 X107.3 Y97.618
G0 X106.064 Y97.821
G0 X105.899 Y97.349
;TYPE:WALL-OUTER
G1 F1500 E19.06568
G1 F1800 X106.71 Y97.114 E19.1078
G1 X107.447 Y96.949 E19.14548
G1 X107.518 Y96.934 E19.1491
G1 X107.8 Y96.889 E19.16335
G1 X107.8 Y96.934
G1 X107.8 Y97.007 E19.16658
G1 X107.8 Y123.007 E20.46372
G1 X107.8 Y123.06 E20.46636
G1 X107.8 Y123.11 E20.46886
G1 X107.485 Y123.06 E20.47518
G1 X107.434 Y123.049 E20.47757
G1 X106.68 Y122.879 E20.51613
G1 X105.874 Y122.643 E20.55803
G1 X105.086 Y122.359 E20.59982
G1 X104.326 Y122.029 E20.64115
G1 X103.579 Y121.647 E20.68301
G1 X102.861 Y121.22 E20.72469
G1 X102.173 Y120.752 E20.7662
G1 X101.506 Y120.233 E20.80837
G1 X100.891 Y119.691 E20.84926
G1 X100.309 Y119.109 E20.89033
G1 X99.756 Y118.482 E20.93204
G1 X99.236 Y117.812 E20.97435
G1 X98.774 Y117.132 E21.01536
G1 X98.342 Y116.402 E21.05768
G1 X97.968 Y115.668 E21.09878
G1 X97.632 Y114.891 E21.14102
G1 X97.352 Y114.111 E21.18236
G1 X97.116 Y113.301 E21.22445
G1 X96.937 Y112.499 E21.26545
G1 X96.804 Y111.661 E21.30778
G1 X96.727 Y110.838 E21.34902
G1 X96.7 Y110.006 E21.39055
G1 X96.726 Y109.174 E21.43208
G1 X96.802 Y108.356 E21.47306
G1 X96.934 Y107.518 E21.51539
G1 X97.112 Y106.716 E21.55637
G1 X97.348 Y105.9 E21.59875
G1 X97.626 Y105.125 E21.63983
G1 X97.962 Y104.347 E21.68211
G1 X98.334 Y103.613 E21.72316
G1 X98.759 Y102.893 E21.76488
G1 X99.234 Y102.191 E21.80716
G1 X99.737 Y101.541 E21.84817
G1 X100.297 Y100.904 E21.89048
G1 X100.903 Y100.298 E21.93324
G1 X101.54 Y99.738 E21.97555
G1 X102.19 Y99.235 E22.01656
G1 X102.892 Y98.76 E22.05884
G1 X103.612 Y98.335 E22.10056
G1 X104.346 Y97.963 E22.14161
G1 X105.124 Y97.627 E22.18389
G1 X105.899 Y97.349 E22.22497
G0 F3000 X106.091 Y97.294
G0 X106.229 Y97.774
G0 X106.143 Y98.101
;TYPE:SKIN
G1 F1800 X106.92 Y97.876 E22.26532
G1 X107.01 Y97.855 E22.26993
G1 X107.01 Y122.144 E23.48172
G1 X106.88 Y122.115 E23.48836
G1 X106.121 Y121.892 E23.52783
G1 X105.37 Y121.622 E23.56765
G1 X104.659 Y121.313 E23.60632
G1 X103.964 Y120.957 E23.64528
G1 X103.295 Y120.559 E23.68412
G1 X102.648 Y120.118 E23.72318
G1 X102.001 Y119.616 E23.76404
G1 X101.43 Y119.113 E23.802
G1 X100.894 Y118.578 E23.83978
G1 X100.364 Y117.977 E23.87976
G1 X99.871 Y117.342 E23.91987
G1 X99.445 Y116.715 E23.95769
G1 X99.028 Y116.009 E23.99859
G1 X98.683 Y115.333 E24.03646
G1 X98.362 Y114.589 E24.07688
G1 X98.106 Y113.875 E24.11473
G1 X97.874 Y113.08 E24.15604
G1 X97.717 Y112.369 E24.19237
G1 X97.586 Y111.546 E24.23395
G1 X97.517 Y110.806 E24.27102
G1 X97.49 Y110.017 E24.31041
G1 X97.516 Y109.198 E24.35129
G1 X97.585 Y108.469 E24.38782
G1 X97.712 Y107.661 E24.42863
G1 X97.874 Y106.926 E24.46618
G1 X98.1 Y106.144 E24.50679
G1 X98.366 Y105.403 E24.54607
G1 X98.673 Y104.693 E24.58466
G1 X99.027 Y103.993 E24.6238
G1 X99.424 Y103.319 E24.66282
G1 X99.872 Y102.656 E24.70274
G1 X100.341 Y102.05 E24.74097
G1 X100.873 Y101.444 E24.7812
G1 X101.443 Y100.874 E24.82142
G1 X102.049 Y100.342 E24.86165
G1 X102.655 Y99.873 E24.89988
G1 X103.318 Y99.425 E24.9398
G1 X103.987 Y99.031 E24.97854
G1 X104.682 Y98.678 E25.01743
G1 X105.407 Y98.365 E25.05682
G1 X106.143 Y98.101 E25.09583
G0 F3000 X106.73 Y98.245
G1 F1800 X106.511 Y98.592 E25.12521
G1 X106.124 Y98.204
G0 F3000 X105.777 Y98.423
G1 F1800 X106.829 Y99.475 E25.19943
G1 X106.899 Y99.545
G0 F3000 X106.829 Y100.041
G1 F1800 X105.367 Y98.579 E25.30259
G1 X105.297 Y98.509
G0 F3000 X104.972 Y98.749
G1 F1800 X106.829 Y100.607 E25.43364
G1 X106.899 Y100.677
G0 F3000 X106.829 Y101.172
G1 F1800 X104.585 Y98.928 E25.59197
G1 X104.515 Y98.858
G0 F3000 X104.209 Y99.118
G1 F1800 X106.829 Y101.738 E25.77682
G1 X106.899 Y101.808
G0 F3000 X106.829 Y102.304
G1 F1800 X103.847 Y99.321 E25.98726
G1 X103.777 Y99.251
G0 F3000 X103.491 Y99.531
G1 F1800 X106.829 Y102.869 E26.22277
G1 X106.899 Y102.939
G0 F3000 X106.829 Y103.435
G1 F1800 X103.149 Y99.755 E26.48241
G1 X103.079 Y99.685
G0 F3000 X102.812 Y99.984
G1 F1800 X106.829 Y104.001 E26.76583
G1 X106.899 Y104.071
G0 F3000 X106.829 Y104.566
G1 F1800 X102.49 Y100.227 E27.07197
G1 X102.42 Y100.157
G0 F3000 X102.171 Y100.474
G1 F1800 X106.829 Y105.132 E27.40062
G1 X106.899 Y105.202
G0 F3000 X106.829 Y105.698
G1 F1800 X101.869 Y100.737 E27.75061
G1 X101.799 Y100.667
G0 F3000 X101.568 Y101.002
G1 F1800 X106.829 Y106.264 E28.12184
G1 X106.899 Y106.334
G0 F3000 X106.829 Y106.829
G1 F1800 X101.284 Y101.284 E28.51307
G1 X101.214 Y101.214
G0 F3000 X101.001 Y101.567
G1 F1800 X106.829 Y107.395 E28.92427
G1 X106.899 Y107.465
G0 F3000 X106.829 Y107.961
G1 F1800 X100.737 Y101.868 E29.35412
G1 X100.667 Y101.798
G0 F3000 X100.473 Y102.17
