;FLAVOR:Marlin
;TIME:2180
;Filament used: 2.23702m
;Layer height: 0.15
;Generated with Cura_SteamEngine 3.1.0
M190 S60
M104 S200
M109 S200
M82 ; absolute extrusion mode
G21 ;metric values
G90 ;absolute positioning
M82 ;set extruder to absolute mode
M107 ;start with the fan off
G28 X0 Y0 ;move X/Y to min endstops
G28 Z0 ;move Z to min endstops
G1 Z15.0 F9000 ;move the platform down 15mm
G92 E0 ;zero the extruded length
G1 F200 E3 ;extrude 3mm of feed stock
G92 E0 ;zero the extruded length again
G1 F9000
;Put printing message on LCD screen
M117 Printing...
;LAYER_COUNT:140
;LAYER:0
M107
G0 F3000 X97.132 Y98.17 Z0.3
;TYPE:SKIRT
G1 F1800 X98.533 Y96.808 E0.09748
G1 X98.926 Y96.472 E0.12328
G1 X100.158 Y95.551 E0.20002
G1 X100.557 Y95.289 E0.22383
G1 X102.028 Y94.442 E0.30852
G1 X102.48 Y94.218 E0.33369
G1 X104.024 Y93.572 E0.41719
G1 X104.511 Y93.404 E0.44289
G1 X106.3 Y92.914 E0.53543
G1 X106.705 Y92.825 E0.55612
G1 X107.347 Y92.719 E0.58858
G1 X107.981 Y92.666 E0.62032
G1 X111.865 Y92.649 E0.8141
G1 X112.628 Y92.719 E0.85232
G1 X113.962 Y92.972 E0.92006
G1 X114.385 Y93.076 E0.94179
G1 X115.829 Y93.517 E1.01712
G1 X116.28 Y93.685 E1.04113
G1 X117.853 Y94.381 E1.12695
G1 X118.297 Y94.612 E1.15192
G1 X119.707 Y95.461 E1.23403
G1 X120.117 Y95.744 E1.25888
G1 X121.482 Y96.818 E1.34554
G1 X121.88 Y97.177 E1.37228
G1 X123.177 Y98.514 E1.46521
G1 X123.504 Y98.897 E1.49034
G1 X124.433 Y100.134 E1.56752
G1 X124.698 Y100.535 E1.5915
G1 X125.533 Y101.98 E1.67476
G1 X125.712 Y102.328 E1.69428
G1 X126.116 Y103.218 E1.74304
G1 X126.263 Y103.59 E1.763
G1 X126.819 Y105.235 E1.84963
G1 X126.946 Y105.702 E1.87377
G1 X127.259 Y107.208 E1.95052
G1 X127.328 Y107.681 E1.97436
G1 X127.469 Y109.33 E2.05693
G1 X127.481 Y109.821 E2.08144
G1 X127.418 Y111.496 E2.16506
G1 X127.363 Y112.026 E2.19164
G1 X127.04 Y113.897 E2.28637
G1 X126.924 Y114.385 E2.31139
G1 X126.483 Y115.829 E2.38672
G1 X126.315 Y116.28 E2.41073
G1 X125.619 Y117.853 E2.49655
G1 X125.388 Y118.297 E2.52152
G1 X124.539 Y119.707 E2.60363
G1 X124.324 Y120.027 E2.62286
G1 X123.723 Y120.837 E2.67318
G1 X123.46 Y121.157 E2.69385
G1 X122.294 Y122.429 E2.77994
G1 X121.949 Y122.762 E2.80386
G1 X120.776 Y123.768 E2.88096
G1 X120.392 Y124.059 E2.90499
G1 X119 Y124.988 E2.98849
G1 X118.549 Y125.249 E3.01448
G1 X116.898 Y126.063 E3.10632
G1 X116.435 Y126.256 E3.13134
G1 X114.982 Y126.758 E3.20804
G1 X114.621 Y126.864 E3.22681
G1 X113.597 Y127.113 E3.27939
G1 X113.066 Y127.205 E3.30627
G1 X111.865 Y127.33 E3.36651
G1 X111.381 Y127.35 E3.39068
G1 X107.594 Y127.284 E3.57964
G1 X106.833 Y127.198 E3.61785
G1 X105.952 Y127.011 E3.66278
G1 X105.615 Y126.924 E3.68015
G1 X104.171 Y126.483 E3.75548
G1 X103.72 Y126.315 E3.77949
G1 X102.147 Y125.619 E3.8653
G1 X101.703 Y125.388 E3.89027
G1 X100.293 Y124.539 E3.97238
G1 X99.883 Y124.256 E3.99724
G1 X98.518 Y123.182 E4.08389
G1 X98.12 Y122.823 E4.11063
G1 X96.823 Y121.486 E4.20356
G1 X96.496 Y121.103 E4.22869
G1 X95.563 Y119.861 E4.30619
G1 X95.296 Y119.458 E4.33031
G1 X94.459 Y118.007 E4.41388
G1 X94.28 Y117.658 E4.43345
G1 X93.882 Y116.779 E4.48159
G1 X93.736 Y116.409 E4.50143
G1 X93.18 Y114.763 E4.58811
G1 X93.054 Y114.298 E4.61214
G1 X92.739 Y112.784 E4.6893
G1 X92.669 Y112.307 E4.71335
G1 X92.53 Y110.667 E4.79546
G1 X92.519 Y110.179 E4.81981
G1 X92.582 Y108.498 E4.90374
G1 X92.636 Y107.974 E4.93002
G1 X92.947 Y106.155 E5.02209
G1 X93.062 Y105.668 E5.04705
G1 X93.512 Y104.185 E5.12437
G1 X93.679 Y103.734 E5.14836
G1 X94.357 Y102.194 E5.23231
G1 X94.587 Y101.749 E5.2573
G1 X95.454 Y100.303 E5.34142
G1 X95.735 Y99.894 E5.36617
G1 X96.77 Y98.572 E5.44994
G1 X97.132 Y98.17 E5.47693
G0 F3000 X97.411 Y98.457
G1 F1800 X98.812 Y97.095 E5.57441
G1 X99.165 Y96.793 E5.59758
G1 X100.397 Y95.872 E5.67433
G1 X100.757 Y95.635 E5.69583
G1 X102.228 Y94.788 E5.78051
G1 X102.634 Y94.587 E5.80312
G1 X104.178 Y93.941 E5.88662
G1 X104.617 Y93.79 E5.90978
G1 X106.406 Y93.3 E6.00232
G1 X106.771 Y93.22 E6.02096
G1 X107.413 Y93.114 E6.05342
G1 X107.983 Y93.066 E6.08196
G1 X111.867 Y93.049 E6.27574
G1 X112.554 Y93.112 E6.31016
G1 X113.888 Y93.365 E6.3779
G1 X114.269 Y93.459 E6.39747
G1 X115.713 Y93.9 E6.4728
G1 X116.118 Y94.051 E6.49436
G1 X117.691 Y94.747 E6.58018
G1 X118.091 Y94.955 E6.60267
G1 X119.501 Y95.804 E6.68479
G1 X119.87 Y96.059 E6.70716
G1 X121.235 Y97.133 E6.79382
G1 X121.593 Y97.455 E6.81784
G1 X122.89 Y98.792 E6.91077
G1 X123.185 Y99.137 E6.93342
G1 X124.114 Y100.374 E7.0106
G1 X124.352 Y100.735 E7.03217
G1 X125.187 Y102.18 E7.11543
G1 X125.348 Y102.493 E7.13299
G1 X125.752 Y103.383 E7.18176
G1 X125.884 Y103.718 E7.19972
G1 X126.44 Y105.363 E7.28635
G1 X126.555 Y105.783 E7.30808
G1 X126.868 Y107.289 E7.38482
G1 X126.93 Y107.715 E7.40629
G1 X127.071 Y109.364 E7.48886
G1 X127.081 Y109.806 E7.51092
G1 X127.018 Y111.481 E7.59454
G1 X126.969 Y111.958 E7.61847
G1 X126.646 Y113.829 E7.71319
G1 X126.541 Y114.269 E7.73576
G1 X126.1 Y115.713 E7.81109
G1 X125.949 Y116.118 E7.83265
G1 X125.253 Y117.691 E7.91847
G1 X125.045 Y118.091 E7.94096
G1 X124.196 Y119.501 E8.02307
G1 X124.003 Y119.789 E8.04037
G1 X123.402 Y120.599 E8.09069
G1 X123.165 Y120.887 E8.1093
G1 X121.999 Y122.159 E8.19539
G1 X121.689 Y122.459 E8.21691
G1 X120.516 Y123.465 E8.294
G1 X120.17 Y123.726 E8.31563
G1 X118.778 Y124.655 E8.39912
G1 X118.372 Y124.89 E8.42252
G1 X116.721 Y125.704 E8.51436
G1 X116.305 Y125.878 E8.53685
G1 X114.852 Y126.38 E8.61355
G1 X114.527 Y126.475 E8.63044
G1 X113.503 Y126.724 E8.68302
G1 X113.025 Y126.807 E8.70722
G1 X111.824 Y126.932 E8.76746
G1 X111.388 Y126.95 E8.78924
G1 X107.601 Y126.884 E8.9782
G1 X106.917 Y126.807 E9.01254
G1 X106.036 Y126.62 E9.05747
G1 X105.731 Y126.541 E9.07319
G1 X104.287 Y126.1 E9.14852
G1 X103.882 Y125.949 E9.17008
G1 X102.309 Y125.253 E9.2559
G1 X101.909 Y125.045 E9.27839
G1 X100.499 Y124.196 E9.3605
G1 X100.13 Y123.941 E9.38288
G1 X98.765 Y122.867 E9.46953
G1 X98.407 Y122.545 E9.49356
G1 X97.11 Y121.208 E9.58649
G1 X96.816 Y120.863 E9.6091
G1 X95.883 Y119.621 E9.6866
G1 X95.643 Y119.258 E9.70831
G1 X94.806 Y117.807 E9.79188
G1 X94.645 Y117.493 E9.80949
G1 X94.247 Y116.614 E9.85763
G1 X94.115 Y116.281 E9.8755
G1 X93.559 Y114.635 E9.96218
G1 X93.445 Y114.216 E9.98384
G1 X93.13 Y112.702 E10.06099
G1 X93.068 Y112.273 E10.08262
G1 X92.929 Y110.633 E10.16473
G1 X92.919 Y110.194 E10.18664
G1 X92.982 Y108.513 E10.27056
G1 X93.03 Y108.041 E10.29423
G1 X93.341 Y106.222 E10.3863
G1 X93.445 Y105.784 E10.40876
G1 X93.895 Y104.301 E10.48608
G1 X94.045 Y103.895 E10.50767
G1 X94.723 Y102.355 E10.59162
G1 X94.93 Y101.955 E10.61409
G1 X95.797 Y100.509 E10.6982
G1 X96.05 Y100.141 E10.72048
G1 X97.085 Y98.819 E10.80425
G1 X97.411 Y98.457 E10.82855
G0 F3000 X97.689 Y98.744
G1 F1800 X99.09 Y97.382 E10.92603
G1 X99.405 Y97.113 E10.9467
G1 X100.637 Y96.192 E11.02344
G1 X100.956 Y95.982 E11.04249
G1 X102.427 Y95.135 E11.12718
G1 X102.789 Y94.956 E11.14732
G1 X104.333 Y94.31 E11.23083
G1 X104.723 Y94.176 E11.2514
G1 X106.512 Y93.686 E11.34394
G1 X106.836 Y93.615 E11.36049
G1 X107.478 Y93.509 E11.39295
G1 X107.985 Y93.466 E11.41834
G1 X111.869 Y93.449 E11.61211
G1 X112.479 Y93.505 E11.64267
G1 X113.813 Y93.758 E11.71041
G1 X114.152 Y93.842 E11.72784
G1 X115.596 Y94.283 E11.80316
G1 X115.956 Y94.417 E11.82233
G1 X117.529 Y95.113 E11.90814
G1 X117.885 Y95.298 E11.92816
G1 X119.295 Y96.147 E12.01027
G1 X119.623 Y96.373 E12.03015
G1 X120.988 Y97.447 E12.1168
G1 X121.306 Y97.734 E12.13817
G1 X122.603 Y99.071 E12.2311
G1 X122.865 Y99.377 E12.2512
G1 X123.794 Y100.614 E12.32838
G1 X124.006 Y100.935 E12.34757
G1 X124.841 Y102.38 E12.43083
G1 X124.984 Y102.658 E12.44643
G1 X125.388 Y103.548 E12.49519
G1 X125.506 Y103.846 E12.51118
G1 X126.062 Y105.491 E12.59781
G1 X126.163 Y105.865 E12.61714
G1 X126.476 Y107.371 E12.69388
G1 X126.531 Y107.749 E12.71294
G1 X126.672 Y109.398 E12.79551
G1 X126.682 Y109.791 E12.81512
G1 X126.619 Y111.466 E12.89875
G1 X126.574 Y111.89 E12.92002
G1 X126.251 Y113.761 E13.01474
G1 X126.158 Y114.152 E13.03479
G1 X125.717 Y115.596 E13.11012
G1 X125.583 Y115.956 E13.12929
G1 X124.887 Y117.529 E13.2151
G1 X124.702 Y117.885 E13.23512
G1 X123.853 Y119.295 E13.31723
G1 X123.682 Y119.551 E13.33259
G1 X123.081 Y120.361 E13.38291
G1 X122.87 Y120.616 E13.39942
G1 X121.704 Y121.888 E13.48551
G1 X121.428 Y122.155 E13.50467
G1 X120.255 Y123.161 E13.58176
G1 X119.948 Y123.394 E13.60099
G1 X118.556 Y124.323 E13.68448
G1 X118.195 Y124.531 E13.70527
G1 X116.544 Y125.345 E13.79711
G1 X116.174 Y125.5 E13.81712
G1 X114.721 Y126.002 E13.89382
G1 X114.432 Y126.086 E13.90883
G1 X113.408 Y126.335 E13.96141
G1 X112.983 Y126.409 E13.98293
G1 X111.782 Y126.534 E14.04317
G1 X111.395 Y126.551 E14.0625
G1 X107.608 Y126.485 E14.25146
G1 X107 Y126.415 E14.28199
G1 X106.119 Y126.228 E14.32693
G1 X105.848 Y126.158 E14.34089
G1 X104.404 Y125.717 E14.41622
G1 X104.044 Y125.583 E14.43538
G1 X102.471 Y124.887 E14.5212
G1 X102.115 Y124.702 E14.54121
G1 X100.705 Y123.853 E14.62333
G1 X100.377 Y123.627 E14.6432
G1 X99.012 Y122.553 E14.72985
G1 X98.694 Y122.266 E14.75122
G1 X97.397 Y120.929 E14.84415
G1 X97.135 Y120.623 E14.86425
G1 X96.202 Y119.381 E14.94175
G1 X95.989 Y119.058 E14.96105
G1 X95.152 Y117.607 E15.04462
G1 X95.009 Y117.328 E15.06027
G1 X94.611 Y116.449 E15.10841
G1 X94.494 Y116.153 E15.12428
G1 X93.938 Y114.507 E15.21096
G1 X93.837 Y114.135 E15.23019
G1 X93.522 Y112.621 E15.30734
G1 X93.466 Y112.239 E15.32661
G1 X93.327 Y110.599 E15.40872
G1 X93.318 Y110.209 E15.42818
G1 X93.381 Y108.528 E15.51211
G1 X93.425 Y108.109 E15.53313
G1 X93.736 Y106.29 E15.62519
G1 X93.828 Y105.9 E15.64518
G1 X94.278 Y104.417 E15.7225
G1 X94.411 Y104.057 E15.74165
G1 X95.089 Y102.517 E15.8256
G1 X95.274 Y102.16 E15.84566
G1 X96.141 Y100.714 E15.92977
G1 X96.365 Y100.387 E15.94955
G1 X97.4 Y99.065 E16.03331
G1 X97.689 Y98.744 E16.05486
G1 F1500 E9.55486
G0 F3000 X103.149 Y97.605
G0 X103.802 Y98.709
G0 X107.3 Y97.618
G0 X107.4 Y97.618
;TYPE:WALL-INNER
G1 F1500 E16.05486
G1 F1800 X107.4 Y97.619 E16.05491
G1 X107.4 Y122.382 E17.29034
G1 X107.4 Y122.383 E17.29039
G1 X107.4 Y122.631 E17.30276
G1 X107.157 Y122.577 E17.31034
G1 X106.8 Y122.497 E17.32859
G1 X106.02 Y122.269 E17.36913
G1 X105.248 Y121.993 E17.41003
G1 X104.499 Y121.668 E17.45077
G1 X103.787 Y121.305 E17.49064
G1 X103.086 Y120.891 E17.53126
G1 X102.418 Y120.437 E17.57155
G1 X101.778 Y119.94 E17.61198
G1 X101.164 Y119.398 E17.65284
G1 X100.602 Y118.836 E17.69249
G1 X100.056 Y118.217 E17.73367
G1 X99.563 Y117.582 E17.77378
G1 X99.109 Y116.914 E17.81407
G1 X98.692 Y116.208 E17.85498
G1 X98.331 Y115.5 E17.89463
G1 X97.999 Y114.732 E17.93637
G1 X97.735 Y113.995 E17.97543
G1 X97.5 Y113.189 E18.01732
G1 X97.331 Y112.43 E18.05611
G1 X97.2 Y111.607 E18.09769
G1 X97.127 Y110.821 E18.13707
G1 X97.1 Y110.005 E18.1778
G1 X97.126 Y109.186 E18.21868
G1 X97.199 Y108.408 E18.25767
G1 X97.328 Y107.589 E18.29903
G1 X97.499 Y106.817 E18.33848
G1 X97.725 Y106.035 E18.37909
G1 X98.003 Y105.26 E18.42017
G1 X98.319 Y104.528 E18.45994
G1 X98.691 Y103.794 E18.501
G1 X99.095 Y103.11 E18.54063
G1 X99.556 Y102.428 E18.5817
G1 X100.048 Y101.793 E18.62178
G1 X100.58 Y101.187 E18.66201
G1 X101.186 Y100.581 E18.70476
G1 X101.792 Y100.049 E18.745
G1 X102.427 Y99.557 E18.78507
G1 X103.109 Y99.096 E18.82614
G1 X103.793 Y98.692 E18.86577
G1 X104.52 Y98.323 E18.90645
G1 X105.264 Y98.002 E18.94687
G1 X106.034 Y97.726 E18.98768
G1 X106.816 Y97.5 E19.02829
G1 X107.157 Y97.424 E19.04572
G1 X107.4 Y97.37 E19.05814
G1 X107.4 Y97.618 E19.06569
G1 F1500 E12.56569
G0 F3000 X107.3 Y97.618
G0 X106.064 Y97.821
G0 X105.899 Y97.349
;TYPE:WALL-OUTER
G1 F1500 E19.06569
G1 F1800 X106.715 Y97.113 E19.10807
G1 X107.446 Y96.95 E19.14543
G1 X107.516 Y96.935 E19.149
G1 X107.8 Y96.89 E19.16335
G1 X107.8 Y96.935
G1 X107.8 Y97.007 E19.16654
G1 X107.8 Y123 E20.46334
G1 X107.8 Y123.063 E20.46648
G1 X107.8 Y123.11 E20.46882
G1 X107.501 Y123.063 E20.47445
G1 X107.44 Y123.05 E20.47725
G1 X106.694 Y122.883 E20.51539
G1 X105.889 Y122.648 E20.55723
G1 X105.108 Y122.368 E20.59862
G1 X104.331 Y122.031 E20.64088
G1 X103.593 Y121.655 E20.6822
G1 X102.868 Y121.226 E20.72423
G1 X102.188 Y120.764 E20.76524
G1 X101.518 Y120.244 E20.80755
G1 X100.891 Y119.691 E20.84926
G1 X100.309 Y119.109 E20.89033
G1 X99.756 Y118.482 E20.93204
G1 X99.236 Y117.812 E20.97435
G1 X98.774 Y117.132 E21.01536
G1 X98.342 Y116.402 E21.05768
G1 X97.968 Y115.668 E21.09878
G1 X97.632 Y114.891 E21.14102
G1 X97.352 Y114.111 E21.18236
G1 X97.116 Y113.301 E21.22445
G1 X96.937 Y112.499 E21.26545
G1 X96.804 Y111.661 E21.30778
G1 X96.727 Y110.838 E21.34902
G1 X96.7 Y110.006 E21.39055
G1 X96.726 Y109.174 E21.43208
G1 X96.802 Y108.356 E21.47306
G1 X96.934 Y107.518 E21.51539
G1 X97.112 Y106.716 E21.55637
G1 X97.348 Y105.9 E21.59875
G1 X97.626 Y105.125 E21.63983
G1 X97.962 Y104.347 E21.68211
G1 X98.334 Y103.613 E21.72316
G1 X98.759 Y102.893 E21.76487
G1 X99.234 Y102.191 E21.80716
G1 X99.737 Y101.541 E21.84817
G1 X100.297 Y100.904 E21.89048
G1 X100.903 Y100.298 E21.93324
G1 X101.54 Y99.738 E21.97555
G1 X102.19 Y99.235 E22.01656
G1 X102.892 Y98.76 E22.05884
G1 X103.612 Y98.335 E22.10056
G1 X104.346 Y97.963 E22.14161
G1 X105.124 Y97.627 E22.18389
G1 X105.899 Y97.349 E22.22497
G0 F3000 X106.091 Y97.294
G0 X106.228 Y97.774
G0 X106.143 Y98.101
;TYPE:SKIN
G1 F1800 X107.01 Y97.855 E22.26993
G1 X107.01 Y122.145 E23.48176
G1 X106.899 Y122.121 E23.48743
G1 X106.14 Y121.898 E23.52689
G1 X105.387 Y121.629 E23.56679
G1 X104.663 Y121.314 E23.60618
G1 X103.981 Y120.966 E23.64438
G1 X103.285 Y120.555 E23.6847
G1 X102.656 Y120.127 E23.72266
G1 X102.018 Y119.632 E23.76295
G1 X101.422 Y119.106 E23.80261
G1 X100.894 Y118.578 E23.83986
G1 X100.364 Y117.977 E23.87984
G1 X99.871 Y117.342 E23.91994
G1 X99.445 Y116.715 E23.95776
G1 X99.028 Y116.009 E23.99867
G1 X98.683 Y115.333 E24.03653
G1 X98.362 Y114.589 E24.07696
G1 X98.106 Y113.875 E24.1148
G1 X97.874 Y113.08 E24.15612
G1 X97.717 Y112.369 E24.19244
G1 X97.586 Y111.546 E24.23402
G1 X97.517 Y110.806 E24.2711
G1 X97.49 Y110.017 E24.31049
G1 X97.516 Y109.198 E24.35137
G1 X97.585 Y108.469 E24.3879
G1 X97.712 Y107.661 E24.42871
G1 X97.874 Y106.926 E24.46626
G1 X98.1 Y106.144 E24.50687
G1 X98.366 Y105.403 E24.54614
G1 X98.673 Y104.693 E24.58474
G1 X99.027 Y103.993 E24.62387
G1 X99.424 Y103.319 E24.6629
G1 X99.872 Y102.656 E24.70282
G1 X100.341 Y102.05 E24.74105
G1 X100.873 Y101.444 E24.78128
G1 X101.443 Y100.874 E24.82149
G1 X102.049 Y100.342 E24.86173
G1 X102.655 Y99.873 E24.89996
G1 X103.318 Y99.425 E24.93988
G1 X103.987 Y99.031 E24.97861
G1 X104.682 Y98.678 E25.0175
G1 X105.407 Y98.365 E25.0569
G1 X106.143 Y98.101 E25.09591
G0 F3000 X106.731 Y98.246
G1 F1800 X106.511 Y98.591 E25.1252
G1 X106.123 Y98.203
G0 F3000 X105.777 Y98.423
G1 F1800 X106.829 Y99.475 E25.19943
G1 X106.899 Y99.545
G0 F3000 X106.829 Y100.041
G1 F1800 X105.367 Y98.579 E25.30258
G1 X105.297 Y98.509
G0 F3000 X104.972 Y98.749
G1 F1800 X106.829 Y100.607 E25.43364
G1 X106.899 Y100.677
G0 F3000 X106.829 Y101.172
G1 F1800 X104.585 Y98.928 E25.59196
G1 X104.515 Y98.858
G0 F3000 X104.209 Y99.118
G1 F1800 X106.829 Y101.738 E25.77682
G1 X106.899 Y101.808
G0 F3000 X106.829 Y102.304
G1 F1800 X103.847 Y99.321 E25.98725
G1 X103.777 Y99.251
G0 F3000 X103.491 Y99.531
G1 F1800 X106.829 Y102.869 E26.22276
G1 X106.899 Y102.939
G0 F3000 X106.829 Y103.435
G1 F1800 X103.149 Y99.755 E26.48241
G1 X103.079 Y99.685
G0 F3000 X102.812 Y99.984
G1 F1800 X106.829 Y104.001 E26.76583
G1 X106.899 Y104.071
G0 F3000 X106.829 Y104.566
G1 F1800 X102.49 Y100.227 E27.07197
G1 X102.42 Y100.157
G0 F3000 X102.171 Y100.474
G1 F1800 X106.829 Y105.132 E27.40061
G1 X106.899 Y105.202
G0 F3000 X106.829 Y105.698
G1 F1800 X101.869 Y100.737 E27.7506
G1 X101.799 Y100.667
G0 F3000 X101.568 Y101.002
G1 F1800 X106.829 Y106.264 E28.12183
G1 X106.899 Y106.334
G0 F3000 X106.829 Y106.829
G1 F1800 X101.284 Y101.284 E28.51306
G1 X101.214 Y101.214
G0 F3000 X101.001 Y101.567
G1 F1800 X106.829 Y107.395 E28.92426
G1 X106.899 Y107.465
G0 F3000 X106.829 Y107.961
G1 F1800 X100.737 Y101.868 E29.35412
G1 X100.667 Y101.798
G0 F3000 X100.473 Y102.17
G1 F1800 X106.829 Y108.526 E29.80257
G1 X106.899 Y108.596
